!!!!SEGMENT: pl-wtm--r-1762--002_stefani-jozef--hans-jurga-allegro.krn
!!!cenid: 18xx:1913
!!!COM: Stefani, Józef
!!!COM-rismID: pe30024097
!!!CDT: 1800/04/16-1876/03/19
!!!CNT: Polish
!!!OPR: Hans Jurga
!!!OTL: Allegro
!!!OMV: 002
!!!PDT:
!!!AGN: Secular
!!!SMS-siglum: PL-Wtm
!!!SMS-shelfmark: R 1762
!!!SMS-shelfwork: 001-002 M
!!!SMS-variant:
!!!SMS-altvar:
!!!NIFC-rismSourceID: 1001131405
!!!NIFC-islandoraID: pl-wtm:29283
!!!URL-pdf-islandora: https://repozytorium.nifc.pl/islandora/object/pl-wtm%3A29283/datastream/PDF/view
!!!URL-scan: https://polish.musicsources.pl/pl/lokalizacje/galeria/rekopisy/6494 @EN{Scan on Polish Music Sources Website} @PL{Skany w portalu Dziedzictwo Muzyki Polskiej w otwartym dostępie}
!!!ONB-nifc: UWAGA: No. 2., skany 0009-0015
!!!AIN: 1 cbass 1 cello 1 clars 1 drumP 6 empty 1 fagot 1 flt 1 oboe 1 picco 1 timpa 1 trngl 1 tromp 1 viola
!!!key:
**kern	**dynam	**kern	**dynam	**kern	**dynam	**kern	**dynam	**kern	**dynam	**kern	**dynam	**kern	**kern	**dynam	**kern	**dynam	**kern	**kern	**dynam	**kern	**dynam	**kern	**dynam	**kern	**dynam	**kern	**dynam	**kern	**dynam	**kern	**dynam	**kern	**dynam
*group6	*	*group6	*	*	*	*group5	*	*group5	*	*group4	*	*group4	*group4	*	*group3	*	*group3	*	*	*	*	*group2	*	*group2	*	*	*	*	*	*group1	*	*group1	*
*	*	*	*	*	*	*I""Violini	*	*I""Violini	*	*	*	*	*	*	*I""Tromboni	*	*I""Tromboni	*	*	*	*	*I""Corni	*	*I""Corni	*	*	*	*	*	*	*	*	*
*	*	*	*	*	*	*I''vl	*	*I''vl	*	*	*	*	*	*	*I''trb	*	*I''trb	*	*	*	*	*I''cor	*	*I''cor	*	*	*	*	*	*	*	*	*
*part18	*part18	*part17	*part17	*part16	*part16	*part15	*part15	*part14	*part14	*part13	*part13	*part12	*part11	*part11	*part10	*part10	*part9	*part8	*part8	*part7	*part7	*part6	*part6	*part5	*part5	*part4	*part4	*part3	*part3	*part2	*part2	*part1	*part1
*staff18	*	*staff17	*	*staff16	*	*staff15	*	*staff14	*	*staff13	*	*staff12	*staff11	*	*staff10	*	*staff9	*staff8	*	*staff7	*	*staff6	*	*staff5	*	*staff4	*	*staff3	*	*staff2	*	*staff1	*
*Icbass	*	*Icello	*	*Iviola	*	*Iempty	*	*Iempty	*	*IdrumP	*	*Itrngl	*Itimpa	*	*Iempty	*	*Iempty	*Itromp	*	*Ifagot	*	*Iempty	*	*Iempty	*	*Iclars	*	*Ioboe	*	*Ipicco	*	*Iflt	*
*I"C: Baſsi	*	*I"Violoncelli	*	*I"Viole	*	*	*	*	*	*I"P. Tambour	*	*I"Triangolo G. Cassa	*I"Timpani	*	*	*	*	*I"in C Trombe	*	*I"Fagotti	*	*	*	*	*	*I"in C Clarinetti	*	*I"Oboe	*	*I"Picolo	*	*I"Flauto	*
*I'cb	*	*I'vlc	*	*I'vle	*	*	*	*	*	*I'p. tamb	*	*I'trgl. g c	*I'timp	*	*	*	*	*I'tr in C	*	*I'fg	*	*	*	*	*	*I'cl	*	*I'ob	*	*I'fl picc	*	*I'fl	*
*clefF4	*	*clefF4	*	*clefC3	*	*clefG2	*	*clefG2	*	*clefF4	*	*clefF4	*clefF4	*	*clefF4	*	*clefC4	*clefG2	*	*clefF4	*	*clefG2	*	*clefG2	*	*clefG2	*	*clefG2	*	*clefG2	*	*clefG2	*
*	*	*	*	*	*	*	*	*	*	*	*	*	*	*	*	*	*	*	*	*	*	*ITrd4c7	*	*	*	*	*	*	*	*	*	*	*
*k[b-]	*	*k[b-]	*	*k[b-]	*	*k[b-]	*	*k[b-]	*	*k[]	*	*k[]	*k[]	*	*k[b-]	*	*k[b-]	*k[b-]	*	*k[b-]	*	*k[b-]	*	*k[]	*	*k[b-]	*	*k[b-]	*	*k[b-]	*	*k[b-]	*
*F:	*	*F:	*	*F:	*	*F:	*	*F:	*	*F:	*	*F:	*F:	*	*F:	*	*F:	*F:	*	*F:	*	*F:	*	*F:	*	*F:	*	*F:	*	*F:	*	*F:	*
*M4/4	*	*M4/4	*	*M4/4	*	*M4/4	*	*M4/4	*	*M4/4	*	*M4/4	*M4/4	*	*M4/4	*	*M4/4	*M4/4	*	*M4/4	*	*M4/4	*	*M4/4	*	*M4/4	*	*M4/4	*	*M4/4	*	*M4/4	*
*met(c)	*	*met(c)	*	*met(c)	*	*met(c)	*	*met(c)	*	*met(c)	*	*met(c)	*met(c)	*	*met(c)	*	*met(c)	*met(c)	*	*met(c)	*	*met(c)	*	*met(c)	*	*met(c)	*	*met(c)	*	*met(c)	*	*met(c)	*
=1	=1	=1	=1	=1	=1	=1	=1	=1	=1	=1	=1	=1	=1	=1	=1	=1	=1	=1	=1	=1	=1	=1	=1	=1	=1	=1	=1	=1	=1	=1	=1	=1	=1
*all\right	*	*all\right	*	*all\right	*	*all\right	*	*all\right	*	*all\right	*	*all\right	*all\right	*	*all\right	*	*all\right	*all\right	*	*all\right	*	*all\right	*	*all\right	*	*all\right	*	*all\right	*	*all\right	*	*all\right	*
!	!	!	!	!	!	!	!	!	!	!	!	!	!	!	!	!	!	!	!	!	!	!	!	!	!	!	!	!	!	!	!	!LO:TX:a:i:t=u Kochanków wiednej chwili kłótnia a w drugiej \nzgoda	!
!	!	!	!	!	!	!	!	!	!	!	!	!	!	!	!	!	!	!	!	!LO:TX:a:t=Col b&colon;	!	!	!	!	!	!	!	!	!	!	!	!LO:TX:a:i:t=B. (&colon; [[Co ty tam pleciesz! wszystko pójdzie jak najlepiej&colon;)]]	!
!	!	!LO:TX:t=P:problem=prawie cała partia zapisana znakiem //	!	!	!	!	!	!	!	!	!	!	!	!	!	!	!	!	!	!	!	!	!	!	!	!	!	!	!	!	!	!LO:TX:a:i:t=Allegro	!
!	!LO:DY:rj	!	!LO:DY:rj	!	!LO:DY:rj	!	!	!	!	!	!	!	!	!	!	!	!	!	!	!	!LO:DY:rj	!	!	!	!	!	!	!	!	!	!	!LO:TX:a:i:t=N=o 2.	!
(16C/LL	p	(yy<16C/LLyy	pyy	(16c/LL	p	1r	.	1r	.	1r	.	1r	1r	.	1r	.	1r	1r	.	(yy16C/LLyy	pyy	1r	.	1r	.	1r	.	1r	.	1r	.	1r	.
16BBn/	.	16BBn/yy	.	16Bn/	.	.	.	.	.	.	.	.	.	.	.	.	.	.	.	16BBn/yy	.	.	.	.	.	.	.	.	.	.	.	.	.
16C/	.	16C/yy	.	16c/	.	.	.	.	.	.	.	.	.	.	.	.	.	.	.	16C/yy	.	.	.	.	.	.	.	.	.	.	.	.	.
16BB/JJ	.	16BB/JJyy	.	16B/JJ	.	.	.	.	.	.	.	.	.	.	.	.	.	.	.	16BB/JJyy	.	.	.	.	.	.	.	.	.	.	.	.	.
8C/)	.	8C/)yy	.	8c/)	.	.	.	.	.	.	.	.	.	.	.	.	.	.	.	8C/)yy	.	.	.	.	.	.	.	.	.	.	.	.	.
8r	.	8ryy	.	8r	.	.	.	.	.	.	.	.	.	.	.	.	.	.	.	8ryy	.	.	.	.	.	.	.	.	.	.	.	.	.
(16C/LL	.	(yy<16C/LLyy	.	(16c/LL	.	.	.	.	.	.	.	.	.	.	.	.	.	.	.	(yy16C/LLyy	.	.	.	.	.	.	.	.	.	.	.	.	.
16BB/	.	16BB/yy	.	16B/	.	.	.	.	.	.	.	.	.	.	.	.	.	.	.	16BB/yy	.	.	.	.	.	.	.	.	.	.	.	.	.
16C/	.	16C/yy	.	16c/	.	.	.	.	.	.	.	.	.	.	.	.	.	.	.	16C/yy	.	.	.	.	.	.	.	.	.	.	.	.	.
16BB/JJ	.	16BB/JJyy	.	16B/JJ	.	.	.	.	.	.	.	.	.	.	.	.	.	.	.	16BB/JJyy	.	.	.	.	.	.	.	.	.	.	.	.	.
8C/)	.	8C/)yy	.	8c/)	.	.	.	.	.	.	.	.	.	.	.	.	.	.	.	8C/)yy	.	.	.	.	.	.	.	.	.	.	.	.	.
8r	.	8ryy	.	8r	.	.	.	.	.	.	.	.	.	.	.	.	.	.	.	8ryy	.	.	.	.	.	.	.	.	.	.	.	.	.
=2	=2	=2	=2	=2	=2	=2	=2	=2	=2	=2	=2	=2	=2	=2	=2	=2	=2	=2	=2	=2	=2	=2	=2	=2	=2	=2	=2	=2	=2	=2	=2	=2	=2
*	*	*	*	*	*	*	*	*	*	*	*	*^	*	*	*	*	*	*	*	*	*	*	*	*	*	*	*	*	*	*	*	*	*
*	*	*	*	*	*	*tremolo	*	*tremolo	*	*	*	*tremolo	*2\right	*tremolo	*	*	*	*	*	*	*	*	*	*	*	*	*	*	*	*	*	*	*	*
!	!LO:DY:rj	!	!LO:DY:rj	!	!	!	!	!	!LO:DY:rj	!	!LO:DY:rj	!	!	!	!LO:DY:rj	!	!	!	!	!LO:DY:rj	!	!LO:DY:rj	!	!	!	!	!	!LO:DY:rj	!	!	!	!	!	!LO:DY:rj
4.C/	f	4.C/yy	fyy	4.c/	f	16ggLL 16cc\	.	16bb-LL 16cc\	f	1RaTT	f	16Ree/LL	2Ra\	16C/LL	f	4.C/	.	1g 1B-	1b- 1g	f	4.C/yy	fyy	1g 1c	.	1cc 1c	.	1bb- 1cc	f	1ccc 1gg	.	1bb-	.	1ggg	f
.	.	.	.	.	.	16gg 16cc\	.	16bb- 16cc\	.	.	.	16Ree/	.	16C/	.	.	.	.	.	.	.	.	.	.	.	.	.	.	.	.	.	.	.	.
.	.	.	.	.	.	16gg 16cc\	.	16bb- 16cc\	.	.	.	16Ree/	.	16C/	.	.	.	.	.	.	.	.	.	.	.	.	.	.	.	.	.	.	.	.
.	.	.	.	.	.	16gg 16cc\	.	16bb- 16cc\	.	.	.	16Ree/	.	16C/	.	.	.	.	.	.	.	.	.	.	.	.	.	.	.	.	.	.	.	.
.	.	.	.	.	.	16gg 16cc\	.	16bb- 16cc\	.	.	.	16Ree/	.	16C/	.	.	.	.	.	.	.	.	.	.	.	.	.	.	.	.	.	.	.	.
.	.	.	.	.	.	16gg 16cc\	.	16bb- 16cc\	.	.	.	16Ree/	.	16C/	.	.	.	.	.	.	.	.	.	.	.	.	.	.	.	.	.	.	.	.
8BBn/	.	8BBn/yy	.	8Bn/	.	16gg 16cc\	.	16bb- 16cc\	.	.	.	16Ree/	.	16C/	.	8BBn/	.	.	.	.	8BBn/yy	.	.	.	.	.	.	.	.	.	.	.	.	.
.	.	.	.	.	.	16gg 16cc\	.	16bb- 16cc\	.	.	.	16Ree/	.	16C/	.	.	.	.	.	.	.	.	.	.	.	.	.	.	.	.	.	.	.	.
8C/L	.	8C/Lyy	.	8c\L	.	16gg 16cc\	.	16bb- 16cc\	.	.	.	16Ree/	2r	16C/	.	8C/L	.	.	.	.	8C/Lyy	.	.	.	.	.	.	.	.	.	.	.	.	.
.	.	.	.	.	.	16gg 16cc\	.	16bb- 16cc\	.	.	.	16Ree/	.	16C/	.	.	.	.	.	.	.	.	.	.	.	.	.	.	.	.	.	.	.	.
8C#X/	.	8C#X/yy	.	8c#X\	.	16gg 16cc\	.	16bb- 16cc\	.	.	.	16Ree/	.	16C/	.	8C#X/	.	.	.	.	8C#X/yy	.	.	.	.	.	.	.	.	.	.	.	.	.
.	.	.	.	.	.	16gg 16cc\	.	16bb- 16cc\	.	.	.	16Ree/	.	16C/	.	.	.	.	.	.	.	.	.	.	.	.	.	.	.	.	.	.	.	.
8D/	.	8D/yy	.	8d\	.	16gg 16cc\	.	16bb- 16cc\	.	.	.	16Ree/	.	16C/	.	8D/	.	.	.	.	8D/yy	.	.	.	.	.	.	.	.	.	.	.	.	.
.	.	.	.	.	.	16gg 16cc\	.	16bb- 16cc\	.	.	.	16Ree/	.	16C/	.	.	.	.	.	.	.	.	.	.	.	.	.	.	.	.	.	.	.	.
8E/J	.	8E/Jyy	.	8e\J	.	16gg 16cc\	.	16bb- 16cc\	.	.	.	16Ree/	.	16C/	.	8E/J	.	.	.	.	8E/Jyy	.	.	.	.	.	.	.	.	.	.	.	.	.
.	.	.	.	.	.	16ggJJ 16cc\	.	16bb-JJ 16cc\	.	.	.	16Ree/JJ	.	16C/JJ	.	.	.	.	.	.	.	.	.	.	.	.	.	.	.	.	.	.	.	.
=3	=3	=3	=3	=3	=3	=3	=3	=3	=3	=3	=3	=3	=3	=3	=3	=3	=3	=3	=3	=3	=3	=3	=3	=3	=3	=3	=3	=3	=3	=3	=3	=3	=3	=3
!	!LO:DY:rj	!	!LO:DY:rj	!	!	!	!	!	!	!	!	!	!	!	!	!	!	!	!	!	!LO:TX:a:i:t=/&colon;Born;/\nto co znowu czy\nsłyszycie	!LO:DY:rj	!	!	!	!	!	!	!	!	!	!	!	!
(16F\LL	p	(yy16F\LLyy	pyy	(16f\LL	p	4ff 4cc\	.	4aa 4cc\	.	4Ra/	.	4Ree/	1rAA	4F\	.	4F\	.	4f 4A\	4a 4f/	.	(yy16F\LLyy	pyy	4f 4A/	.	4cc 4c/	.	4aa 4cc\	.	4ccc 4ff\	.	4aa\	.	4fff\	.
16E\	.	16E\yy	.	16e\	.	.	.	.	.	.	.	.	.	.	.	.	.	.	.	.	16E\yy	.	.	.	.	.	.	.	.	.	.	.	.	.
16F\	.	16F\yy	.	16f\	.	.	.	.	.	.	.	.	.	.	.	.	.	.	.	.	16F\yy	.	.	.	.	.	.	.	.	.	.	.	.	.
16E\JJ	.	16E\JJyy	.	16e\JJ	.	.	.	.	.	.	.	.	.	.	.	.	.	.	.	.	16E\JJyy	.	.	.	.	.	.	.	.	.	.	.	.	.
8F\)	.	8F\)yy	.	8f\)	.	4r	.	4r	.	4r	.	4r	.	4r	.	4r	.	4r	4r	.	8F\)yy	.	4r	.	4r	.	4r	.	4r	.	4r	.	4r	.
8r	.	8ryy	.	8r	.	.	.	.	.	.	.	.	.	.	.	.	.	.	.	.	8ryy	.	.	.	.	.	.	.	.	.	.	.	.	.
(16F\LL	.	(yy16F\LLyy	.	(16f\LL	.	2r	.	2r	.	2r	.	2r	.	2r	.	2r	.	2r	2r	.	(yy16F\LLyy	.	2r	.	2r	.	2r	.	2r	.	2r	.	2r	.
16E\	.	16E\yy	.	16e\	.	.	.	.	.	.	.	.	.	.	.	.	.	.	.	.	16E\yy	.	.	.	.	.	.	.	.	.	.	.	.	.
16F\	.	16F\yy	.	16f\	.	.	.	.	.	.	.	.	.	.	.	.	.	.	.	.	16F\yy	.	.	.	.	.	.	.	.	.	.	.	.	.
16E\JJ	.	16E\JJyy	.	16e\JJ	.	.	.	.	.	.	.	.	.	.	.	.	.	.	.	.	16E\JJyy	.	.	.	.	.	.	.	.	.	.	.	.	.
8F\)	.	8F\)yy	.	8f\)	.	.	.	.	.	.	.	.	.	.	.	.	.	.	.	.	8F\)yy	.	.	.	.	.	.	.	.	.	.	.	.	.
8r	.	8ryy	.	8r	.	.	.	.	.	.	.	.	.	.	.	.	.	.	.	.	8ryy	.	.	.	.	.	.	.	.	.	.	.	.	.
!!LO:PB:g=original
=4	=4	=4	=4	=4	=4	=4	=4	=4	=4	=4	=4	=4	=4	=4	=4	=4	=4	=4	=4	=4	=4	=4	=4	=4	=4	=4	=4	=4	=4	=4	=4	=4	=4	=4
*	*	*	*	*	*	*	*	*	*	*	*	*	*	*	*	*	*	*^	*	*	*	*	*^	*	*^	*	*^	*	*^	*	*	*	*	*
!	!	!	!	!	!	!	!	!	!	!	!	!	!	!	!	!	!	!	!	!	!	!	!	!	!	!	!	!	!	!	!	!	!LO:SIC:v:s=1ee-	!	!	!LO:SIC:v:s=1ee-	!	!	!
4.F\	.	4.F\yy	.	4.F/	.	16ccLL 16f/	.	16ee-XLL 16a\	.	1RaTT	.	16Ree/LL	2Ra\	16F\LL	.	4.F\	.	1e-X	1c	1cc 1e-X	.	4.F\yy	.	1f	1f	.	1ee-X	1cc	.	1ee-X	1cc	.	1ff	1ee	.	1ee	.	1ccc	.
.	.	.	.	.	.	16cc 16f/	.	16ee- 16a\	.	.	.	16Ree/	.	16F\	.	.	.	.	.	.	.	.	.	.	.	.	.	.	.	.	.	.	.	.	.	.	.	.	.
.	.	.	.	.	.	16cc 16f/	.	16ee- 16a\	.	.	.	16Ree/	.	16F\	.	.	.	.	.	.	.	.	.	.	.	.	.	.	.	.	.	.	.	.	.	.	.	.	.
.	.	.	.	.	.	16cc 16f/	.	16ee- 16a\	.	.	.	16Ree/	.	16F\	.	.	.	.	.	.	.	.	.	.	.	.	.	.	.	.	.	.	.	.	.	.	.	.	.
.	.	.	.	.	.	16cc 16f/	.	16ee- 16a\	.	.	.	16Ree/	.	16F\	.	.	.	.	.	.	.	.	.	.	.	.	.	.	.	.	.	.	.	.	.	.	.	.	.
.	.	.	.	.	.	16cc 16f/	.	16ee- 16a\	.	.	.	16Ree/	.	16F\	.	.	.	.	.	.	.	.	.	.	.	.	.	.	.	.	.	.	.	.	.	.	.	.	.
8En\	.	8En\yy	.	8En/	.	16cc 16f/	.	16ee- 16a\	.	.	.	16Ree/	.	16F\	.	8En\	.	.	.	.	.	8En\yy	.	.	.	.	.	.	.	.	.	.	.	.	.	.	.	.	.
.	.	.	.	.	.	16cc 16f/	.	16ee- 16a\	.	.	.	16Ree/	.	16F\	.	.	.	.	.	.	.	.	.	.	.	.	.	.	.	.	.	.	.	.	.	.	.	.	.
8F\L	.	8F\Lyy	.	8F/L	.	16cc 16f/	.	16ee- 16a\	.	.	.	16Ree/	2r	16F\	.	8F\L	.	.	.	.	.	8F\Lyy	.	.	.	.	.	.	.	.	.	.	.	.	.	.	.	.	.
.	.	.	.	.	.	16cc 16f/	.	16ee- 16a\	.	.	.	16Ree/	.	16F\	.	.	.	.	.	.	.	.	.	.	.	.	.	.	.	.	.	.	.	.	.	.	.	.	.
8F#X\	.	8F#X\yy	.	8F#X/	.	16cc 16f/	.	16ee- 16a\	.	.	.	16Ree/	.	16F\	.	8F#X\	.	.	.	.	.	8F#X\yy	.	.	.	.	.	.	.	.	.	.	.	.	.	.	.	.	.
.	.	.	.	.	.	16cc 16f/	.	16ee- 16a\	.	.	.	16Ree/	.	16F\	.	.	.	.	.	.	.	.	.	.	.	.	.	.	.	.	.	.	.	.	.	.	.	.	.
8G\	.	8G\yy	.	8G/	.	16cc 16f/	.	16ee- 16a\	.	.	.	16Ree/	.	16F\	.	8G\	.	.	.	.	.	8G\yy	.	.	.	.	.	.	.	.	.	.	.	.	.	.	.	.	.
.	.	.	.	.	.	16cc 16f/	.	16ee- 16a\	.	.	.	16Ree/	.	16F\	.	.	.	.	.	.	.	.	.	.	.	.	.	.	.	.	.	.	.	.	.	.	.	.	.
8A\J	.	8A\Jyy	.	8A/J	.	16cc 16f/	.	16ee- 16a\	.	.	.	16Ree/	.	16F\	.	8A\J	.	.	.	.	.	8A\Jyy	.	.	.	.	.	.	.	.	.	.	.	.	.	.	.	.	.
.	.	.	.	.	.	16ccJJ 16f/	.	16ee-JJ 16a\	.	.	.	16Ree/JJ	.	16F\JJ	.	.	.	.	.	.	.	.	.	.	.	.	.	.	.	.	.	.	.	.	.	.	.	.	.
=5	=5	=5	=5	=5	=5	=5	=5	=5	=5	=5	=5	=5	=5	=5	=5	=5	=5	=5	=5	=5	=5	=5	=5	=5	=5	=5	=5	=5	=5	=5	=5	=5	=5	=5	=5	=5	=5	=5	=5
8B-\	.	8B-\yy	.	8B-/	.	8b- 8f/	.	8dd 8f/	.	8Ra/	.	8Ree/	1rAA	8F\	.	8B-\	.	8d/	8B-\	8b- 8d/	.	8B-\	.	8f/	8f\	.	8dd/	8dd\	.	8dd/	8b-\	.	8ff/	8dd\	.	8dd\	.	8bb-\	.
8r	.	8ryy	.	8r	.	8r	.	8r	.	8r	.	8r	.	8r	.	8r	.	8r	8ryy	8r	.	8r	.	8r	8ryy	.	8r	8ryy	.	8r	8ryy	.	8r	8ryy	.	8r	.	8r	.
4r	.	4ryy	.	4r	.	4r	.	4r	.	4r	.	4r	.	4r	.	4r	.	4r	4ryy	4r	.	4r	.	4r	4ryy	.	4r	4ryy	.	4r	4ryy	.	4r	4ryy	.	4r	.	4r	.
2r	.	2ryy	.	2r	.	2r	.	2r	.	2r	.	2r	.	2r	.	2r	.	2r	2ryy	2r	.	2r	.	2r	2ryy	.	2r	2ryy	.	2r	2ryy	.	2r	2ryy	.	2r	.	2r	.
*	*	*	*	*	*	*	*	*	*	*	*	*	*	*	*	*	*	*	*	*	*	*	*	*	*	*	*v	*v	*	*	*	*	*v	*v	*	*	*	*	*
*	*	*	*	*	*	*	*	*	*	*	*	*v	*v	*	*	*	*	*v	*v	*	*	*	*	*	*	*	*	*	*v	*v	*	*	*	*	*	*	*
=6	=6	=6	=6	=6	=6	=6	=6	=6	=6	=6	=6	=6	=6	=6	=6	=6	=6	=6	=6	=6	=6	=6	=6	=6	=6	=6	=6	=6	=6	=6	=6	=6	=6	=6
*tremolo	*	*tremolo	*	*tremolo	*	*	*	*	*	*	*	*	*	*	*	*	*	*	*	*	*	*	*	*	*	*	*	*	*	*	*	*	*	*
*2\right	*	*2\right	*	*	*	*	*	*	*	*	*	*	*	*	*	*	*	*	*	*	*	*	*	*	*	*	*	*	*	*	*	*	*	*
8F#X\L	.	8F#X\Lyy	.	8A/L	.	8dL 8c/	.	8dd\	.	1r	.	1r	1r	.	1r	.	1r	1r	.	8r	.	8r	2ryy	.	8r	.	8r	.	8r	.	2r	.	2r	.
!	!	!	!	!	!	!	!	!	!	!	!	!	!	!	!	!	!	!	!	!	!	!LO:SIC:v:s=4en	!	!	!	!	!	!	!	!	!	!	!	!
!	!	!	!	!	!	!	!	!	!	!	!	!	!	!	!	!	!	!	!	!	!	!LO:TX:b:t=P:problem=diminuendolike accent	!	!	!LO:TX:b:t=P:problem=diminuendolike accent	!	!	!	!LO:TX:b:t=P:problem=diminuendolike accent	!	!	!	!	!
8F#\	.	8F#\yy	.	8A/	.	8d 8c/	.	4dd^<\	.	.	.	.	.	.	.	.	.	.	.	4F#X 4FF#X/	.	4c 4A#X^/	.	.	4dd^<\	.	4d/	.	4dd 4a^/	.	.	.	.	.
8F#\	.	8F#\yy	.	8A/	.	8d 8c/	.	.	.	.	.	.	.	.	.	.	.	.	.	.	.	.	.	.	.	.	.	.	.	.	.	.	.	.
!	!	!	!	!	!	!	!	!	!	!	!	!	!	!	!	!	!	!	!	!	!	!LO:SIC:v:s=8en	!	!	!	!	!	!	!	!	!	!	!	!
8F#\J	.	8F#\Jyy	.	8A/J	.	8dJ 8c/	.	8a/	.	.	.	.	.	.	.	.	.	.	.	8F# 8FF#/	.	8c 8A#/	.	.	8dd\	.	8d/	.	8a/	.	.	.	.	.
!	!	!	!	!	!	!	!	!LO:TX:a:i:t=[[Marta\n-Co takiego]]	!	!	!	!	!	!	!	!	!	!	!	!	!	!	!	!	!	!	!	!	!	!	!	!	!	!
!	!	!	!	!	!	!	!	!LO:TX:a:i:t=Małgorzata\n-Jakeś Krzyki	!	!	!	!	!	!	!	!	!	!	!	!	!	!	!	!	!	!	!	!	!	!	!	!	!	!
8G\	.	8G\yy	.	8G/	.	8d 8B-/	.	8b-/	.	.	.	.	.	.	.	.	.	.	.	8G 8GG\	.	8d/	8B-\	.	8dd\	.	8d/	.	8b- 8g/	.	8r	.	8r	.
8r	.	8ryy	.	8r	.	8r	.	8r	.	.	.	.	.	.	.	.	.	.	.	8r	.	8r	8ryy	.	8r	.	8r	.	8r	.	(16gg\LL	.	((16bb-\LL	.
.	.	.	.	.	.	.	.	.	.	.	.	.	.	.	.	.	.	.	.	.	.	.	.	.	.	.	.	.	.	.	16bb-\J	.	16ddd\J)	.
4r	.	4ryy	.	4r	.	4r	.	4r	.	.	.	.	.	.	.	.	.	.	.	4r	.	4r	4ryy	.	4r	.	4r	.	4r	.	8ddd'\J)	.	8fff'\J)	.
.	.	.	.	.	.	.	.	.	.	.	.	.	.	.	.	.	.	.	.	.	.	.	.	.	.	.	.	.	.	.	8r	.	8r	.
=7	=7	=7	=7	=7	=7	=7	=7	=7	=7	=7	=7	=7	=7	=7	=7	=7	=7	=7	=7	=7	=7	=7	=7	=7	=7	=7	=7	=7	=7	=7	=7	=7	=7	=7
*	*	*	*	*	*	*	*	*	*	*	*	*	*	*	*	*	*	*	*	*	*	*	*	*	*	*	*	*	*^	*	*	*	*	*
8G#X\L	.	8G#X\Lyy	.	8Bn/L	.	8eL 8d/	.	8ee\	.	1r	.	1r	1r	.	1r	.	1r	1r	.	8r	.	8r	2ryy	.	8r	.	8r	.	8r	8ryy	.	2r	.	2r	.
!	!	!	!	!	!	!	!	!	!	!	!	!	!	!	!	!	!	!	!	!	!	!	!	!	!LO:TX:b:t=P:problem=diminuendolike accent	!	!	!	!LO:TX:b:t=P:problem=diminuendolike accent	!	!	!	!	!	!
8G#\	.	8G#\yy	.	8B/	.	8e 8d/	.	4ee\	.	.	.	.	.	.	.	.	.	.	.	4G#X 4GG#X/	.	4BX 4G#X/	.	.	4ee 4e^/	.	4e/	.	4ee/	4bn^\	.	.	.	.	.
8G#\	.	8G#\yy	.	8B/	.	8e 8d/	.	.	.	.	.	.	.	.	.	.	.	.	.	.	.	.	.	.	.	.	.	.	.	.	.	.	.	.	.
8G#\J	.	8G#\Jyy	.	8B/J	.	8eJ 8d/	.	8bn\	.	.	.	.	.	.	.	.	.	.	.	8G# 8GG#/	.	8B 8G#/	.	.	8b 8e/	.	8e/	.	8b/	8b\	.	.	.	.	.
!	!	!	!	!	!	!	!	!LO:TX:a:i:t=[[Born\ntam od strony pałacu]]	!	!	!	!	!	!	!	!	!	!	!	!	!	!	!	!	!	!	!	!	!	!	!	!	!	!	!
8A\	.	8A\yy	.	8A/	.	8e 8c/	.	8cc\	.	.	.	.	.	.	.	.	.	.	.	8A 8AA\	.	8c/	8A\	.	8cc 8e/	.	8e/	.	8cc/	8a\	.	8r	.	8r	.
!	!	!	!	!	!	!	!	!	!	!	!	!	!	!	!	!	!	!	!	!	!	!	!	!	!	!	!	!	!	!	!	!LO:N:vis=16	!	!LO:N:vis=16	!
8r	.	8ryy	.	8r	.	8r	.	8r	.	.	.	.	.	.	.	.	.	.	.	8r	.	8r	8r	.	8r	.	8r	.	8r	8ryy	.	(32aa\LLL	.	(32aa\LLL	.
!	!	!	!	!	!	!	!	!	!	!	!	!	!	!	!	!	!	!	!	!	!	!	!	!	!	!	!	!	!	!	!	!LO:N:vis=16	!	!LO:N:vis=16	!
.	.	.	.	.	.	.	.	.	.	.	.	.	.	.	.	.	.	.	.	.	.	.	.	.	.	.	.	.	.	.	.	32bbn\	.	32bbn\	.
!	!	!	!	!	!	!	!	!	!	!	!	!	!	!	!	!	!	!	!	!	!	!	!	!	!	!	!	!	!	!	!	!LO:N:vis=16	!	!LO:N:vis=16	!
.	.	.	.	.	.	.	.	.	.	.	.	.	.	.	.	.	.	.	.	.	.	.	.	.	.	.	.	.	.	.	.	32ccc\	.	32ccc\	.
!	!	!	!	!	!	!	!	!	!	!	!	!	!	!	!	!	!	!	!	!	!	!	!	!	!	!	!	!	!	!	!	!LO:N:vis=16	!	!LO:N:vis=16	!
.	.	.	.	.	.	.	.	.	.	.	.	.	.	.	.	.	.	.	.	.	.	.	.	.	.	.	.	.	.	.	.	32ddd\JJ)	.	32ddd\JJ)	.
4r	.	4ryy	.	4r	.	4r	.	4r	.	.	.	.	.	.	.	.	.	.	.	4r	.	4r	4r	.	4r	.	4r	.	4r	4ryy	.	8eee'\J	.	8eee'\J	.
.	.	.	.	.	.	.	.	.	.	.	.	.	.	.	.	.	.	.	.	.	.	.	.	.	.	.	.	.	.	.	.	8r	.	8r	.
!!LO:PB:g=original
=8	=8	=8	=8	=8	=8	=8	=8	=8	=8	=8	=8	=8	=8	=8	=8	=8	=8	=8	=8	=8	=8	=8	=8	=8	=8	=8	=8	=8	=8	=8	=8	=8	=8	=8	=8
*	*	*	*	*	*	*	*	*	*	*	*	*^	*	*	*	*	*	*^	*	*	*	*	*	*	*^	*	*^	*	*	*	*	*	*	*	*
*	*	*	*	*	*	*	*	*	*	*	*	*	*	*	*	*2\right	*	*2\right	*	*2\right	*	*	*	*	*2\right	*	*	*2\right	*	*	*2\right	*	*	*2\right	*	*	*	*	*
!	!LO:DY:rj	!	!LO:DY:rj	!	!LO:DY:rj	!	!LO:DY:a:rj	!	!	!	!	!LO:TX:a:t=Banda:problem=na tej stronie wpisane nie w tej linijce	!	!LO:TX:a:t=Timpani:problem=na tej stronie wpisane nie w tej linijce	!	!	!LO:DY:rj	!	!	!	!LO:DY:rj	!	!	!	!	!LO:DY:rj	!	!	!	!	!	!	!	!	!LO:DY:rj	!	!	!	!LO:DY:rj
8A#X\L	f	8A#X\Lyy	fyy	8c#XL 8F#X/	f	8f#XL 8c#X/	f	8ff#X\	.	2RaTT/	.	16Ree/LL	4Ra\	1r	.	(2A#X\	f >	(2f#X 2c#X\	(2cc#X/	[2f#X\	f	2A#X 2AA#X/	.	[2f#X/	[2f#\	f	2cc#X/	(2cc#\	.	(2cc#X/	[2f#X\	.	(2ccc#X/	[2ff#X\	f >	1r	.	8fff#X\	f
.	.	.	.	.	.	.	.	.	.	.	.	16Ree/	.	.	.	.	.	.	.	.	.	.	.	.	.	.	.	.	.	.	.	.	.	.	.	.	.	.	.
8A#\	.	8A#\yy	.	8c# 8F#/	.	8f# 8c#/	.	4ff#^<\	.	.	.	16Ree/	.	.	.	.	.	.	.	.	.	.	.	.	.	.	.	.	.	.	.	.	.	.	.	.	.	4fff#^<\	.
.	.	.	.	.	.	.	.	.	.	.	.	16Ree/	.	.	.	.	.	.	.	.	.	.	.	.	.	.	.	.	.	.	.	.	.	.	.	.	.	.	.
8A#\	.	8A#\yy	.	8c# 8F#/	.	8f# 8c#/	.	.	.	.	.	16Ree/	4rGG	.	.	.	.	.	.	.	.	.	.	.	.	.	.	.	.	.	.	.	.	.	.	.	.	.	.
.	.	.	.	.	.	.	.	.	.	.	.	16Ree/	.	.	.	.	.	.	.	.	.	.	.	.	.	.	.	.	.	.	.	.	.	.	.	.	.	.	.
8A#\J	.	8A#\Jyy	.	8c#J 8F#/	.	8f#J 8c#/	.	8cc#X\	.	.	.	16Ree/	.	.	.	.	.	.	.	.	.	.	.	.	.	.	.	.	.	.	.	.	.	.	.	.	.	8ccc#X\	.
.	.	.	.	.	.	.	.	.	.	.	.	16Ree/JJ	.	.	.	.	.	.	.	.	.	.	.	.	.	.	.	.	.	.	.	.	.	.	.	.	.	.	.
!	!	!	!	!	!	!	!	!	!	!	!	!	!	!	!	!	!	!	!	!	!	!LO:SIC:v:n=1:s=8Bn	!	!	!	!	!	!	!	!	!	!	!	!	!	!	!	!	!
!LO:SIC:v:s=8Bn	!LO:DY:rj	!LO:SIC:v:s=8Bn	!LO:DY:rj	!LO:SIC:v:s=8Bn	!	!	!LO:DY:a:rj	!LO:TX:a:i:t=[[A. Krzyki]]	!	!	!	!	!	!	!	!	!LO:DY:rj	!	!	!	!LO:DY:rj	!LO:SIC:v:n=2:s=8BBn	!	!	!	!LO:DY:rj	!	!	!	!	!	!	!LO:SIC:v:s=8bbn	!	!LO:DY:rj	!	!	!	!LO:DY:rj
8B-\	p	8B-\yy	pyy	8d 8B-\	p	8f# 8Bn/	p	8dd\	.	8Ra/	.	8Ree/	2rC	.	.	8Bn\)	] p	8f# 8d\)	8dd/)	8f#\]	p	8B- 8BB-\	.	8f#/]	8f#\]	p	8dd/	8dd\)	.	8dd/)	8f#\]	.	8bb-/)	8ff#\]	] p	.	.	8ddd\	p
8r	.	8ryy	.	8r	.	8r	.	8r	.	8r	.	8rA	.	.	.	8r	.	8r	8r	8ryy	.	8r	.	8r	8ryy	.	8r	8ryy	.	8r	8ryy	.	8r	8ryy	.	.	.	8r	.
8An\	.	8An\yy	.	8d#X\	.	8f# 8B/	.	8dd#X\	.	4r	.	4rA	.	.	.	4r	.	4r	4r	4ryy	.	4r	.	4r	4ryy	.	4r	4ryy	.	4r	4ryy	.	4r	4ryy	.	.	.	4r	.
8r	.	8ryy	.	8r	.	8r	.	8r	.	.	.	.	.	.	.	.	.	.	.	.	.	.	.	.	.	.	.	.	.	.	.	.	.	.	.	.	.	.	.
*	*	*	*	*	*	*	*	*	*	*	*	*	*	*	*	*	*	*	*v	*v	*	*	*	*	*	*	*	*	*	*	*	*	*	*	*	*	*	*	*
=9	=9	=9	=9	=9	=9	=9	=9	=9	=9	=9	=9	=9	=9	=9	=9	=9	=9	=9	=9	=9	=9	=9	=9	=9	=9	=9	=9	=9	=9	=9	=9	=9	=9	=9	=9	=9	=9	=9
*	*	*	*	*2\right	*	*	*	*	*	*	*	*	*	*	*	*	*	*	*	*	*	*	*	*	*	*	*	*	*	*	*	*	*	*	*	*	*	*
!	!LO:DY:rj	!	!LO:DY:rj	!	!LO:DY:rj	!	!LO:DY:a	!	!	!	!	!	!	!	!	!	!	!	!LO:SIC:v:n=1:s=2bn	!LO:DY:rj	!	!	!	!	!LO:DY:rj	!	!	!	!	!	!	!	!	!LO:DY:rj	!	!	!	!LO:DY:rj
8G#X\L	f	8G#X\Lyy	fyy	8e\L	f	8eL 8Bn/	f	8ee\	.	2RaTT/	.	16Ree/LL	4Ra\	1r	.	(2G#X\	.	2e 2Bn\	(>2b- [2e/	f	2G#X 2GG#X/	.	((2g#X/	2g#\	f	2b/	[2e\	.	(2bn/	[2e\	.	(2bbn/	[2ee\	f >	1r	.	8eee\	f
.	.	.	.	.	.	.	.	.	.	.	.	16Ree/	.	.	.	.	.	.	.	.	.	.	.	.	.	.	.	.	.	.	.	.	.	.	.	.	.	.
8G#\	.	8G#\yy	.	8e\	.	8e 8B/	.	4ee\	.	.	.	16Ree/	.	.	.	.	.	.	.	.	.	.	.	.	.	.	.	.	.	.	.	.	.	.	.	.	4eee^<\	.
.	.	.	.	.	.	.	.	.	.	.	.	16Ree/	.	.	.	.	.	.	.	.	.	.	.	.	.	.	.	.	.	.	.	.	.	.	.	.	.	.
8G#\	.	8G#\yy	.	8e\	.	8e 8B/	.	.	.	.	.	16Ree/	4rGG	.	.	.	.	.	.	.	.	.	.	.	.	.	.	.	.	.	.	.	.	.	.	.	.	.
.	.	.	.	.	.	.	.	.	.	.	.	16Ree/	.	.	.	.	.	.	.	.	.	.	.	.	.	.	.	.	.	.	.	.	.	.	.	.	.	.
!	!	!	!	!	!	!	!	!LO:TX:a:i:t=hałasy\nM. wołaią że [[się pali]] górę	!	!	!	!	!	!	!	!	!	!	!	!	!	!	!	!	!	!	!	!	!	!	!	!	!	!	!	!	!	!
8G#\J	.	8G#\Jyy	.	8e\J	.	8eJ 8B/	.	8dd\	.	.	.	16Ree/	.	.	.	.	.	.	.	.	.	.	.	.	.	.	.	.	.	.	.	.	.	.	.	.	8ddd\	.
.	.	.	.	.	.	.	.	.	.	.	.	16Ree/JJ	.	.	.	.	.	.	.	.	.	.	.	.	.	.	.	.	.	.	.	.	.	]	.	.	.	.
!	!	!	!	!	!LO:DY:rj	!	!LO:DY:a:rj	!	!	!	!	!	!	!	!	!	!	!	!	!LO:DY:rj	!	!	!	!	!LO:DY:rj	!	!	!	!	!	!	!	!	!LO:DY:rj	!	!	!	!
8A\	p	8A\yy	pyy	8A/	p	8e 8c/	p	8cc\	.	8Ra/	.	8Ree/	2rAA	.	.	8A\)	.	8e 8c\	8cc 8e/])	p	8A 8AA\	.	8a/))	8a\	p	8cc/	8e\]	.	8cc/)	8e\]	.	8aa/)	8ee\]	p	.	.	8ccc\	p
8r	.	8ryy	.	8r	.	8r	.	8r	.	8r	.	8rA	.	.	.	8r	.	8r	8r	.	8r	.	8r	8ryy	.	8r	8ryy	.	8r	8ryy	.	8r	8ryy	.	.	.	8r	.
8D\	.	8D\yy	.	8d\	.	8f/	.	8b-\	.	4r	.	4rA	.	.	.	4r	.	4r	4r	.	4r	.	4r	4ryy	.	4r	4ryy	.	4r	4ryy	.	4r	4ryy	.	.	.	4r	.
8r	.	8ryy	.	8r	.	8r	.	8r	.	.	.	.	.	.	.	.	.	.	.	.	.	.	.	.	.	.	.	.	.	.	.	.	.	.	.	.	.	.
*	*	*	*	*	*	*	*	*	*	*	*	*	*	*	*	*	*	*	*	*	*	*	*	*	*	*	*	*	*v	*v	*	*	*	*	*	*	*	*
*	*	*	*	*	*	*	*	*	*	*	*	*	*	*	*	*	*	*	*	*	*	*	*	*	*	*	*	*	*	*	*v	*v	*	*	*	*	*
=10	=10	=10	=10	=10	=10	=10	=10	=10	=10	=10	=10	=10	=10	=10	=10	=10	=10	=10	=10	=10	=10	=10	=10	=10	=10	=10	=10	=10	=10	=10	=10	=10	=10	=10	=10	=10
*	*	*	*	*	*	*	*	*	*	*	*	*	*	*	*	*	*	*^	*^	*	*	*	*	*	*	*	*	*	*	*	*	*	*	*	*	*
8E\	.	8E\yy	.	8c\	.	8e/	.	8a/	.	2r	.	2r	2ryy	2r	.	2r	.	2r	2ryy	2r	2ryy	.	2r	.	2r	2ryy	.	2r	2ryy	.	2r	.	2r	.	2r	.	2r	.
8r	.	8ryy	.	8r	.	8r	.	8r	.	.	.	.	.	.	.	.	.	.	.	.	.	.	.	.	.	.	.	.	.	.	.	.	.	.	.	.	.	.
8E\	.	8E\yy	.	8Bn/	.	8d/	.	8g#X/	.	.	.	.	.	.	.	.	.	.	.	.	.	.	.	.	.	.	.	.	.	.	.	.	.	.	.	.	.	.
!	!	!	!	!	!	!	!	!LO:TX:a:i:t=A. i M. pali się	!	!	!	!	!	!	!	!	!	!	!	!	!	!	!	!	!	!	!	!	!	!	!	!	!	!	!	!	!	!
8r	.	8ryy	.	8r	.	8r	.	8r	.	.	.	.	.	.	.	.	.	.	.	.	.	.	.	.	.	.	.	.	.	.	.	.	.	.	.	.	.	.
*	*	*	*	*	*	*	*	*2\right	*	*	*	*	*	*2\right	*	*	*	*	*	*	*	*	*2\right	*	*	*	*	*	*	*	*	*	*	*	*2\right	*	*2\right	*
!	!LO:DY:rj	!	!LO:DY:rj	!	!LO:DY:rj	!	!	!	!LO:DY:rj	!	!	!	!	!	!	!	!LO:DY:rj	!	!	!	!	!	!	!LO:DY:rj	!	!	!LO:DY:rj	!	!	!	!	!	!	!	!	!LO:DY:rj	!	!LO:DY:rj
16D/LL	ff	16D/LLyy	ffyy	16G#X/LL	ff	16bn\LL	.	16ff\LL	ff	2RaTT/	.	16Ree/LL	2Ra\	16F\LL	.	2D/	ff	2Bn/	2G#X\	2bn/	2f\	.	2d 2D\	ff	2f/	2f\	ff	2ff/	2dd\	.	2gg#X 2bn\	ff	2bbn 2ff\	.	2ff\	ff	2bbn\	ff
16D/	.	16D/yy	.	16G#/	.	16b\	.	16ff\	.	.	.	16Ree/	.	16F\	.	.	.	.	.	.	.	.	.	.	.	.	.	.	.	.	.	.	.	.	.	.	.	.
16D/	.	16D/yy	.	16G#/	.	16b\	.	16ff\	.	.	.	16Ree/	.	16F\	.	.	.	.	.	.	.	.	.	.	.	.	.	.	.	.	.	.	.	.	.	.	.	.
16D/	.	16D/yy	.	16G#/	.	16b\JJ	.	16ff\	.	.	.	16Ree/	.	16F\	.	.	.	.	.	.	.	.	.	.	.	.	.	.	.	.	.	.	.	.	.	.	.	.
16D/	.	16D/yy	.	16G#/	.	16b\LL	.	16ff\	.	.	.	16Ree/	.	16F\	.	.	.	.	.	.	.	.	.	.	.	.	.	.	.	.	.	.	.	.	.	.	.	.
16D/	.	16D/yy	.	16G#/	.	16b\	.	16ff\	.	.	.	16Ree/	.	16F\	.	.	.	.	.	.	.	.	.	.	.	.	.	.	.	.	.	.	.	.	.	.	.	.
16D/	.	16D/yy	.	16G#/	.	16b\	.	16ff\	.	.	.	16Ree/	.	16F\	.	.	.	.	.	.	.	.	.	.	.	.	.	.	.	.	.	.	.	.	.	.	.	.
16D/JJ	.	16D/JJyy	.	16G#/JJ	.	16b\JJ	.	16ff\JJ	.	.	.	16Ree/JJ	.	16F\JJ	.	.	.	.	.	.	.	.	.	.	.	.	.	.	.	.	.	.	.	.	.	.	.	.
!!LO:PB:g=original
=11	=11	=11	=11	=11	=11	=11	=11	=11	=11	=11	=11	=11	=11	=11	=11	=11	=11	=11	=11	=11	=11	=11	=11	=11	=11	=11	=11	=11	=11	=11	=11	=11	=11	=11	=11	=11	=11	=11
*	*	*	*	*	*	*	*	*	*	*	*	*	*	*	*	*	*	*	*	*	*	*	*	*	*	*	*	*	*	*	*^	*	*	*	*	*	*	*
4C/	.	4C/yy	.	4A/	.	4cc\	.	4ee\	.	4Ra/	.	4Ree/	4Ra\	4C/	.	4C/	.	4c/	4A\	4cc 4e/	2ryy	.	4c 4C\	.	4a/	4e\	.	4ee/	4cc\	.	4aa 4cc\	2ryy	.	4ccc 4ee\	.	4ee\	.	4ccc\	.
4r	.	4ryy	.	4r	.	4r	.	4r	.	4r	.	4r	4ryy	4r	.	4r	.	4r	4ryy	4r	.	.	4r	.	4r	4ryy	.	4r	4ryy	.	4r	.	.	4r	.	4r	.	4r	.
!	!	!	!	!	!	!	!	!	!	!	!	!	!	!	!	!	!	!	!	!	!	!	!	!	!	!	!	!LO:TX:b:t=P:problem=diminuendolike accent	!	!	!	!	!	!	!	!LO:TX:t=P:problem=diminuendolike accent	!	!LO:TX:t=P:problem=diminuendolike accent	!
16BBn/LL	.	16BBn/LLyy	.	16e\LL	.	16g#X/LL	.	16dd\LL	.	2RaTT/	.	16Ree/LL	2Ra\	2r	.	2BBn/	.	2d/	2G#X\	2dd/	2g#X\	.	2Bn 2BBn\	.	(2g#X/	[>2e\	.	[2ee^</	(>2dd\	.	2ee/	2dd\	.	2gg#X 2dd\	.	(2gg#X^<\	.	(2ddd^<\	.
16BB/	.	16BB/yy	.	16e\	.	16g#/	.	16dd\	.	.	.	16Ree/	.	.	.	.	.	.	.	.	.	.	.	.	.	.	.	.	.	.	.	.	.	.	.	.	.	.	.
16BB/	.	16BB/yy	.	16e\	.	16g#/	.	16dd\	.	.	.	16Ree/	.	.	.	.	.	.	.	.	.	.	.	.	.	.	.	.	.	.	.	.	.	.	.	.	.	.	.
16BB/	.	16BB/yy	.	16e\	.	16g#/	.	16dd\	.	.	.	16Ree/	.	.	.	.	.	.	.	.	.	.	.	.	.	.	.	.	.	.	.	.	.	.	.	.	.	.	.
16BB/	.	16BBLyy	.	16e\	.	16g#/	.	16dd\	.	.	.	16Ree/	.	.	.	.	.	.	.	.	.	.	.	.	.	.	.	.	.	.	.	.	.	.	.	.	.	.	.
16BB/	.	16BB/yy	.	16e\	.	16g#/	.	16dd\	.	.	.	16Ree/	.	.	.	.	.	.	.	.	.	.	.	.	.	.	.	.	.	.	.	.	.	.	.	.	.	.	.
16BB/	.	16BB/yy	.	16e\	.	16g#/	.	16dd\	.	.	.	16Ree/	.	.	.	.	.	.	.	.	.	.	.	.	.	.	.	.	.	.	.	.	.	.	.	.	.	.	.
16BB/JJ	.	16BB/JJyy	.	16e\JJ	.	16g#/JJ	.	16dd\JJ	.	.	.	16Ree/JJ	.	.	.	.	.	.	.	.	.	.	.	.	.	.	.	.	.	.	.	.	.	.	.	.	.	.	.
=12	=12	=12	=12	=12	=12	=12	=12	=12	=12	=12	=12	=12	=12	=12	=12	=12	=12	=12	=12	=12	=12	=12	=12	=12	=12	=12	=12	=12	=12	=12	=12	=12	=12	=12	=12	=12	=12	=12	=12
!	!	!	!	!LO:TX:a:t=vi	!	!	!	!	!	!	!	!	!	!	!	!	!	!	!	!	!	!	!	!	!	!	!	!	!	!	!	!	!	!	!	!	!	!	!
!	!	!	!	!LO:TX:b:i:t=[[B. A tak-jak\nnajwyrarazniej nawet widać\npłomienie-prędzej widra, bosaki!]]	!	!	!	!	!	!	!	!	!	!	!	!	!	!	!	!	!	!	!	!	!	!	!	!	!	!	!	!	!	!	!	!	!	!	!
4AA/	.	4AA/yy	.	4e\	.	4a/	.	4cc\	.	4Ra/	.	4Ree/	4Ra\	4C/	.	4AA/	.	4c/	4A\	4cc/	4a\	.	4A 4AA/	.	4a/)	4e\]	.	4ee/]	4cc\)	.	4ee/	4cc\	.	4aa 4cc\	.	4aa\)	.	4ccc\)	.
!LO:TX:b:i:t=tur Mał Boże miłosierny /&colon;odchodząc do domu&colon;/\\nzlituj się	!	!	!	!	!	!	!	!	!	!	!	!	!	!	!	!	!	!	!	!	!	!	!	!	!	!	!	!	!	!	!	!	!	!	!	!	!	!	!
4r;	.	4r;yy	.	4r;	.	4r;	.	4r;	.	4r;	.	4r;	4ryy	4r;	.	4r	.	4r	4ryy	4r	4ryy	.	4r;	.	4r;	4ryy	.	4r;	4ryy	.	4r;	4ryy	.	4r;	.	4r;	.	4r;	.
8F\	.	8F\yy	.	8A/	.	8d/	.	8a/	.	2r	.	2r	2ryy	2r	.	2r	.	2r	2ryy	8c/	2ryy	.	8F 8FF/	.	8a/	8f\	.	8ff 8dd\	4ryy	.	8dd/	8a\	.	8aa 8dd\	.	8a/	.	8aa\	.
4F^<\	.	4F^<\yy	.	4A/	.	4d/	.	4dd^<\	.	.	.	.	.	.	.	.	.	.	.	4d/	.	.	4F 4FF^/	.	4a/	4f^\	.	4ff 4dd^<\	.	.	4dd/	4a\	.	4aa 4dd^<\	.	4dd\	.	4ddd^<\	.
.	.	.	.	.	.	.	.	.	.	.	.	.	.	.	.	.	.	.	.	.	.	.	.	.	.	.	.	.	8ryy	.	.	.	.	.	.	.	.	.	.
!	!	!	!	!LO:TX:b:i:t=de B. tak iest to pożar patrzajcie iuż widać\npłomienie już pałac w ogniu, na pomoc\nna pomoc kto żyje gore gore re	!	!	!	!	!	!	!	!	!	!	!	!	!	!	!	!	!	!	!	!	!	!	!	!	!	!	!	!	!	!	!	!	!	!	!
8F#X\	.	8F#X\yy	.	8A/	.	8d#X/	.	8aa 8cc\	.	.	.	.	.	.	.	.	.	.	.	8a/	.	.	8F#X 8FF#X/	.	8a/	8f#X\	.	8dd#X/	8cc\	.	8dd#X/	8a\	.	8aa 8dd#X\	.	8aa\	.	8ccc\	.
=13	=13	=13	=13	=13	=13	=13	=13	=13	=13	=13	=13	=13	=13	=13	=13	=13	=13	=13	=13	=13	=13	=13	=13	=13	=13	=13	=13	=13	=13	=13	=13	=13	=13	=13	=13	=13	=13	=13	=13
*	*	*	*	*	*	*	*	*	*	*	*	*	*	*	*	*	*	*	*	*	*	*	*	*	*	*	*	*	*	*	*	*	*	*^	*	*	*	*	*
8G\L	.	8G\Lyy	.	8G/L	.	8e/L	.	8ggL 8cc\	.	2RaTT/	.	16Ree/LL	2Ra\	16C/LL	.	2G\	.	2e/	2c\	8g/L	4ryy	.	2G 2GG/	.	2g/	2g\	.	2ee/	2cc\	.	2ee/	2g\	.	2gg/	2ee\	.	8gg\L	.	8ccc\L	.
.	.	.	.	.	.	.	.	.	.	.	.	16Ree/	.	16C/	.	.	.	.	.	.	.	.	.	.	.	.	.	.	.	.	.	.	.	.	.	.	.	.	.	.
8G\	.	8G\yy	.	8c/	.	8e 8G/	.	16ee\L	.	.	.	16Ree/	.	16C/	.	.	.	.	.	16eeL 16e/	.	.	.	.	.	.	.	.	.	.	.	.	.	.	.	.	16ee\L	.	16eee\L	.
.	.	.	.	.	.	.	.	16cc\JJ	.	.	.	16Ree/	.	16C/	.	.	.	.	.	16ccJJ 16c/	.	.	.	.	.	.	.	.	.	.	.	.	.	.	.	.	16cc\JJ	.	16ccc\JJ	.
8G\	.	8G\yy	.	8c/	.	8e 8G/	.	4g/	.	.	.	16Ree/	.	16C/	.	.	.	.	.	4g/	4g\	.	.	.	.	.	.	.	.	.	.	.	.	.	.	.	4gg\	.	4gg\	.
.	.	.	.	.	.	.	.	.	.	.	.	16Ree/	.	16C/	.	.	.	.	.	.	.	.	.	.	.	.	.	.	.	.	.	.	.	.	.	.	.	.	.	.
8G\J	.	8G\Jyy	.	8c/J	.	8eJ 8G/	.	.	.	.	.	16Ree/	.	16C/	.	.	.	.	.	.	.	.	.	.	.	.	.	.	.	.	.	.	.	.	.	.	.	.	.	.
.	.	.	.	.	.	.	.	.	.	.	.	16Ree/JJ	.	16C/JJ	.	.	.	.	.	.	.	.	.	.	.	.	.	.	.	.	.	.	.	.	.	.	.	.	.	.
8GG/L	.	8GG/Lyy	.	8d\L	.	8fL 8G/	.	16f#X/LL	.	4Ra/	.	4Ree/	4Ra\	4F\	.	2GG/	.	2f/	2d\	8f#X/L	2ryy	.	2G 2GG/	.	2g/	2f\	.	2dd 2g/	2ryy	.	2ff/	2g\	.	2ffn/	2dd\	.	8ff#X\L	.	8ff#X\L	.
.	.	.	.	.	.	.	.	16f#/	.	.	.	.	.	.	.	.	.	.	.	.	.	.	.	.	.	.	.	.	.	.	.	.	.	.	.	.	.	.	.	.
8GG/	.	8GG/yy	.	8d\	.	8f 8G/	.	16g/	.	.	.	.	.	.	.	.	.	.	.	8g/	.	.	.	.	.	.	.	.	.	.	.	.	.	.	.	.	8gg\	.	8gg\	.
.	.	.	.	.	.	.	.	16g/	.	.	.	.	.	.	.	.	.	.	.	.	.	.	.	.	.	.	.	.	.	.	.	.	.	.	.	.	.	.	.	.
!	!	!	!	!	!	!	!	!	!	!	!	!LO:TX:a:i:t=/&colon;Anna sama&colon;/\nA.[[Jezu! jakieś straszne\nprzeczucie mnie\nogarnia]]\nA. Niemogę poiąc co\nsię zemną dzieie	!	!	!	!	!	!	!	!	!	!	!	!	!	!	!	!	!	!	!	!	!	!	!	!	!	!	!	!
8GG/	.	8GG/yy	.	8d\	.	8f 8G/	.	16a/	.	4Ra/	.	4Ree/	4Ra\	4F\	.	.	.	.	.	8a/	.	.	.	.	.	.	.	.	.	.	.	.	.	.	.	.	8aa\	.	8aa\	.
.	.	.	.	.	.	.	.	16a/	.	.	.	.	.	.	.	.	.	.	.	.	.	.	.	.	.	.	.	.	.	.	.	.	.	.	.	.	.	.	.	.
8GG/J	.	8GG/Jyy	.	8d\J	.	8fJ 8G/	.	16bn/	.	.	.	.	.	.	.	.	.	.	.	8bn/J	.	.	.	.	.	.	.	.	.	.	.	.	.	.	.	.	8bbn\J	.	8bbn\J	.
.	.	.	.	.	.	.	.	16b/JJ	.	.	.	.	.	.	.	.	.	.	.	.	.	.	.	.	.	.	.	.	.	.	.	.	.	.	.	.	.	.	.	.
*Xtremolo	*	*Xtremolo	*	*	*	*	*	*	*	*	*	*	*	*	*	*	*	*	*	*	*	*	*	*	*	*	*	*	*	*	*	*	*	*	*	*	*	*	*	*
*	*	*	*	*	*	*	*	*	*	*	*	*	*	*	*	*	*	*v	*v	*	*	*	*	*	*v	*v	*	*v	*v	*	*v	*v	*	*v	*v	*	*	*	*	*
*	*	*	*	*	*	*	*	*	*	*	*	*v	*v	*	*	*	*	*	*v	*v	*	*	*	*	*	*	*	*	*	*	*	*	*	*	*
!!LO:PB:g=original
=14||	=14||	=14||	=14||	=14||	=14||	=14||	=14||	=14||	=14||	=14||	=14||	=14||	=14||	=14||	=14||	=14||	=14||	=14||	=14||	=14||	=14||	=14||	=14||	=14||	=14||	=14||	=14||	=14||	=14||	=14||	=14||	=14||	=14||
!	!	!	!	!	!	!	!	!LO:TX:a:i:t=Jakieś okropne przeczucie lamuie mi oddech...Tu zazdrość\nKarola, jego pogrózki.... Ali mój Boże, gdyby on w przystępie\nrozpaczy... gdyby on w przystępie \nrozpaczy... gdyby on w uniesieniu zemsty nad tym mniemanym rywalem gdyby on dopuścił\nsię takiej zbrodni wtedy naprawdę bylibyśmy\nzgubieni	!	!	!	!	!	!	!	!	!	!	!	!	!	!	!	!	!	!	!	!	!	!	!	!	!
!	!	!	!	!	!LO:DY:rj	!	!	!LO:TX:a:i:t=Anusia\n/&colon;mowi w czasie muzyki &colon;/\n[[To iest sprawka Karola! Dręczony zazdrością, sądząc że się wieczorem tam udam, podpalił pałac. Jesteśmy \nzgubieni! wszystko stracone]]	!LO:DY:rj	!	!	!	!	!	!	!	!	!	!	!	!	!	!	!	!	!	!	!	!	!	!	!	!
1r	.	4c\	.	4c\	pp	4cc\	.	(4cc\	pp	1ryy	.	1ryy	1ryy	.	1ryy	.	1ryy	1ryy	.	1ryy	.	1ryy	.	1ryy	.	1ryy	.	1ryy	.	1ryy	.	1ryy	.
.	.	(4A-X\	.	(4a-X\	.	4a-X/	.	4a-X/	.	.	.	.	.	.	.	.	.	.	.	.	.	.	.	.	.	.	.	.	.	.	.	.	.
.	.	4G\	.	4g\	.	4g/	.	4g/	.	.	.	.	.	.	.	.	.	.	.	.	.	.	.	.	.	.	.	.	.	.	.	.	.
.	.	4E-X\)	.	4e-X\)	.	4e-X/	.	4e-X/	.	.	.	.	.	.	.	.	.	.	.	.	.	.	.	.	.	.	.	.	.	.	.	.	.
=15	=15	=15	=15	=15	=15	=15	=15	=15	=15	=15	=15	=15	=15	=15	=15	=15	=15	=15	=15	=15	=15	=15	=15	=15	=15	=15	=15	=15	=15	=15	=15	=15	=15
1ryy	.	2D\	.	2d\	.	2d/	.	2d/)	.	1ryy	.	1ryy	1ryy	.	1ryy	.	1ryy	1ryy	.	1ryy	.	1ryy	.	1ryy	.	1ryy	.	1ryy	.	1ryy	.	1ryy	.
.	.	2G\	.	2g\	.	2g/	.	2g/	.	.	.	.	.	.	.	.	.	.	.	.	.	.	.	.	.	.	.	.	.	.	.	.	.
=16	=16	=16	=16	=16	=16	=16	=16	=16	=16	=16	=16	=16	=16	=16	=16	=16	=16	=16	=16	=16	=16	=16	=16	=16	=16	=16	=16	=16	=16	=16	=16	=16	=16
1ryy	.	2C/	.	2c\	.	2c/	.	2c/	.	1ryy	.	1ryy	1ryy	.	1ryy	.	1ryy	1ryy	.	1ryy	.	1ryy	.	1ryy	.	1ryy	.	1ryy	.	1ryy	.	1ryy	.
*	*	*	*	*	*	*2\right	*	*	*	*	*	*	*	*	*	*	*	*	*	*	*	*	*	*	*	*	*	*	*	*	*	*	*
.	.	2C/	.	2c\	.	(2cc\	.	(2ee-X^<\	.	.	.	.	.	.	.	.	.	.	.	.	.	.	.	.	.	.	.	.	.	.	.	.	.
=17	=17	=17	=17	=17	=17	=17	=17	=17	=17	=17	=17	=17	=17	=17	=17	=17	=17	=17	=17	=17	=17	=17	=17	=17	=17	=17	=17	=17	=17	=17	=17	=17	=17
1ryy	.	1D	.	[1d	.	4b-X\)	.	4dd\)	.	1ryy	.	1ryy	1ryy	.	1ryy	.	1ryy	1ryy	.	1ryy	.	1ryy	.	1ryy	.	1ryy	.	1ryy	.	1ryy	.	1ryy	.
.	.	.	.	.	.	(2g/	.	(4b-X\	.	.	.	.	.	.	.	.	.	.	.	.	.	.	.	.	.	.	.	.	.	.	.	.	.
.	.	.	.	.	.	.	.	4a\	.	.	.	.	.	.	.	.	.	.	.	.	.	.	.	.	.	.	.	.	.	.	.	.	.
.	.	.	.	.	.	4f#X/)	.	4dd\	.	.	.	.	.	.	.	.	.	.	.	.	.	.	.	.	.	.	.	.	.	.	.	.	.
=18	=18	=18	=18	=18	=18	=18	=18	=18	=18	=18	=18	=18	=18	=18	=18	=18	=18	=18	=18	=18	=18	=18	=18	=18	=18	=18	=18	=18	=18	=18	=18	=18	=18
1ryy	.	4G\	.	2d\]	.	1g	.	4b-X\)	.	1ryy	.	1ryy	1ryy	.	1ryy	.	1ryy	1ryy	.	1ryy	.	1ryy	.	1ryy	.	1ryy	.	1ryy	.	1ryy	.	1ryy	.
.	.	4Fn\	.	.	.	.	.	(4bn\	.	.	.	.	.	.	.	.	.	.	.	.	.	.	.	.	.	.	.	.	.	.	.	.	.
.	.	4E-X\	.	2c\	.	.	.	4cc\	.	.	.	.	.	.	.	.	.	.	.	.	.	.	.	.	.	.	.	.	.	.	.	.	.
.	.	4En\	.	.	.	.	.	4b-X\	.	.	.	.	.	.	.	.	.	.	.	.	.	.	.	.	.	.	.	.	.	.	.	.	.
!!LO:PB:g=original
=19	=19	=19	=19	=19	=19	=19	=19	=19	=19	=19	=19	=19	=19	=19	=19	=19	=19	=19	=19	=19	=19	=19	=19	=19	=19	=19	=19	=19	=19	=19	=19	=19	=19
2r	.	2F\	.	2c\	.	(2f/	.	2a/	.	1ryy	.	1ryy	1ryy	.	1ryy	.	1ryy	1ryy	.	1ryy	.	1ryy	.	1ryy	.	1ryy	.	1ryy	.	1ryy	.	1ryy	.
!	!LO:DY:rj	!	!	!	!	!	!	!	!	!	!	!	!	!	!	!	!	!	!	!	!	!	!	!	!	!	!	!	!	!	!	!	!
2D\	pp	2D\	.	2d\	.	4a/	.	4ff\	.	.	.	.	.	.	.	.	.	.	.	.	.	.	.	.	.	.	.	.	.	.	.	.	.
.	.	.	.	.	.	4f/)	.	4a/)	.	.	.	.	.	.	.	.	.	.	.	.	.	.	.	.	.	.	.	.	.	.	.	.	.
=20	=20	=20	=20	=20	=20	=20	=20	=20	=20	=20	=20	=20	=20	=20	=20	=20	=20	=20	=20	=20	=20	=20	=20	=20	=20	=20	=20	=20	=20	=20	=20	=20	=20
2G\	.	2G\	.	2c\	.	2e/	.	4g/	.	1ryy	.	1ryy	1ryy	.	1ryy	.	1ryy	1ryy	.	1ryy	.	1ryy	.	1ryy	.	1ryy	.	1ryy	.	1ryy	.	1ryy	.
.	.	.	.	.	.	.	.	(2cc\	.	.	.	.	.	.	.	.	.	.	.	.	.	.	.	.	.	.	.	.	.	.	.	.	.
2GG/	.	2GG/	.	2d\	.	2f/	.	.	.	.	.	.	.	.	.	.	.	.	.	.	.	.	.	.	.	.	.	.	.	.	.	.	.
!	!	!	!	!	!	!	!	!LO:TX:a:i:t=[[Karol mój jest\npodpalaczem, morercą.]]	!	!	!	!	!	!	!	!	!	!	!	!	!	!	!	!	!	!	!	!	!	!	!	!	!
.	.	.	.	.	.	.	.	4bn\)	.	.	.	.	.	.	.	.	.	.	.	.	.	.	.	.	.	.	.	.	.	.	.	.	.
=21||	=21||	=21||	=21||	=21||	=21||	=21||	=21||	=21||	=21||	=21||	=21||	=21||	=21||	=21||	=21||	=21||	=21||	=21||	=21||	=21||	=21||	=21||	=21||	=21||	=21||	=21||	=21||	=21||	=21||	=21||	=21||	=21||	=21||
1ryy	.	1ryyyy	.	1ryy	.	1ryy	.	1ryy	.	1ryy	.	1ryy	1ryy	.	1ryy	.	1ryy	1ryy	.	1ryy	.	1ryy	.	1ryy	.	1ryy	.	1ryy	.	1ryy	.	1ryy	.
=22||	=22||	=22||	=22||	=22||	=22||	=22||	=22||	=22||	=22||	=22||	=22||	=22||	=22||	=22||	=22||	=22||	=22||	=22||	=22||	=22||	=22||	=22||	=22||	=22||	=22||	=22||	=22||	=22||	=22||	=22||	=22||	=22||	=22||
!	!	!	!	!	!	!	!	!LO:TX:a:i:t=B. [[Żywo żywo, niechaj\nKażdy spieszy na pomoc.]]	!	!	!	!	!	!	!	!	!	!	!	!	!	!	!	!	!	!	!	!	!	!	!	!	!
!	!	!	!	!	!	!	!	!LO:TX:a:i:t=(&colon; Born wbiega &colon;/	!	!	!	!	!	!	!	!	!	!	!	!	!	!	!	!	!	!	!	!	!	!	!	!	!
8C/	.	8C/yy	.	16cc\LL	.	8e 8G/	.	(16ccc\LL	.	1ryy	.	1ryy	1ryy	.	1ryy	.	1ryy	1ryy	.	1ryy	.	1ryy	.	1ryy	.	1ryy	.	1ryy	.	1ryy	.	1ryy	.
.	.	.	.	16dd\	.	.	.	16ddd\)	.	.	.	.	.	.	.	.	.	.	.	.	.	.	.	.	.	.	.	.	.	.	.	.	.
8r	.	8ryy	.	16ee\	.	8r	.	16eee'\	.	.	.	.	.	.	.	.	.	.	.	.	.	.	.	.	.	.	.	.	.	.	.	.	.
.	.	.	.	16dd\JJ	.	.	.	16ddd'\JJ	.	.	.	.	.	.	.	.	.	.	.	.	.	.	.	.	.	.	.	.	.	.	.	.	.
4r	.	4ryy	.	16cc\LL	.	4r	.	16ccc'\LL	.	.	.	.	.	.	.	.	.	.	.	.	.	.	.	.	.	.	.	.	.	.	.	.	.
.	.	.	.	16bn\	.	.	.	16bbn'\	.	.	.	.	.	.	.	.	.	.	.	.	.	.	.	.	.	.	.	.	.	.	.	.	.
.	.	.	.	16a\	.	.	.	16aa'\	.	.	.	.	.	.	.	.	.	.	.	.	.	.	.	.	.	.	.	.	.	.	.	.	.
.	.	.	.	16g\JJ	.	.	.	16gg'\JJ	.	.	.	.	.	.	.	.	.	.	.	.	.	.	.	.	.	.	.	.	.	.	.	.	.
!LO:TX:b:i:t=Born Żwawo dzieci\nżwawo nieoszczę-\ndzajcie się.	!	!	!	!	!	!	!	!	!	!	!	!	!	!	!	!	!	!	!	!	!	!	!	!	!	!	!	!	!	!	!	!	!
2r	.	2ryy	.	16f\LL	.	4r	.	16ff'\LL	.	.	.	.	.	.	.	.	.	.	.	.	.	.	.	.	.	.	.	.	.	.	.	.	.
.	.	.	.	16e\	.	.	.	16ee'\	.	.	.	.	.	.	.	.	.	.	.	.	.	.	.	.	.	.	.	.	.	.	.	.	.
.	.	.	.	16d\	.	.	.	16dd'\	.	.	.	.	.	.	.	.	.	.	.	.	.	.	.	.	.	.	.	.	.	.	.	.	.
.	.	.	.	16c\JJ	.	.	.	16cc'\JJ	.	.	.	.	.	.	.	.	.	.	.	.	.	.	.	.	.	.	.	.	.	.	.	.	.
.	.	.	.	16Bn/LL	.	16bn/LL	.	16bn'/LL	.	.	.	.	.	.	.	.	.	.	.	.	.	.	.	.	.	.	.	.	.	.	.	.	.
.	.	.	.	16A/	.	16a/	.	16a'/	.	.	.	.	.	.	.	.	.	.	.	.	.	.	.	.	.	.	.	.	.	.	.	.	.
.	.	.	.	16G/	.	16g/	.	16g'/	.	.	.	.	.	.	.	.	.	.	.	.	.	.	.	.	.	.	.	.	.	.	.	.	.
.	.	.	.	16F/JJ	.	16f/JJ	.	16f'/JJ	.	.	.	.	.	.	.	.	.	.	.	.	.	.	.	.	.	.	.	.	.	.	.	.	.
!!LO:PB:g=original
=23	=23	=23	=23	=23	=23	=23	=23	=23	=23	=23	=23	=23	=23	=23	=23	=23	=23	=23	=23	=23	=23	=23	=23	=23	=23	=23	=23	=23	=23	=23	=23	=23	=23
*	*	*	*	*	*	*	*	*	*	*	*	*^	*	*	*	*	*^	*	*	*	*	*	*	*^	*	*	*	*	*	*	*	*	*
4r	.	4ryy	.	4E/	.	4e/	.	4e/	.	4r	.	4r	4ryy	4r	.	4r	.	4r	4ryy	4r	.	4r	.	4r	.	4r	4ryy	.	4r	.	4r	.	4r	.	4r	.
4C/	.	4C/yy	.	4c\	.	4gg 4cc\	.	4ccc 4ee\	.	4RaTT/	.	4Ree/	4Ra\	8r	.	4C/	.	4e/	4c\	8r	.	8r	.	8r	.	4ee/	4cc\	.	8r	.	8r	.	8r	.	8r	.
.	.	.	.	.	.	.	.	.	.	.	.	.	.	8C/	.	.	.	.	.	8cc 8e/	.	8c 8C\	.	8g 8c/	.	.	.	.	8ee 8cc\	.	8ccc 8ee\	.	8ccc\	.	8eee\	.
4F\	.	4F\yy	.	4f\	.	4ff 4a\	.	4ddd 4ff\	.	4Ra/	.	4Ree/	4Ra\	8r	.	4F\	.	4f 4A\	4ryy	8r	.	8r	.	8r	.	4ff/	4dd\	.	8r	.	8r	.	8r	.	8r	.
.	.	.	.	.	.	.	.	.	.	.	.	.	.	8F\	.	.	.	.	.	8a 8f/	.	8A 8F\	.	8a 8f\	.	.	.	.	8ff 8dd\	.	8ddd 8ff\	.	8ddd\	.	8fff\	.
4G\	.	4G\yy	.	4g\	.	4ff 4g/	.	4bbn 4dd\	.	4Ra/	.	4Ree/	4Ra\	8r	.	4G\	.	4d/	4Bn\	8r	.	8r	.	8r	.	4dd 4g/	4ryy	.	8r	.	8r	.	8r	.	8r	.
.	.	.	.	.	.	.	.	.	.	.	.	.	.	8F\	.	.	.	.	.	8bn 8d/	.	8G\	.	8g 8f\	.	.	.	.	8ff 8dd\	.	8bbn 8dd\	.	8bbn\	.	8ddd\	.
*	*	*	*	*	*	*	*	*	*	*	*	*	*	*	*	*	*	*	*	*	*	*	*	*	*	*v	*v	*	*	*	*	*	*	*	*	*
=24	=24	=24	=24	=24	=24	=24	=24	=24	=24	=24	=24	=24	=24	=24	=24	=24	=24	=24	=24	=24	=24	=24	=24	=24	=24	=24	=24	=24	=24	=24	=24	=24	=24	=24	=24
(16c\LL	.	(yy16c\LLyy	.	(16cc\LL	.	8eeL 8g/	.	(16ccc\LL	.	8Ra/	.	8Ree/	8Ra\	8C/	.	8C/	.	8e/	8c\	8cc 8e/	.	(16c\LL	.	8g 8c/	.	8cc 8e/	.	(16eeLL 16cc\	.	(16cccLL 16ee\	.	(16ccc\LL	.	8eee'\L	.
16e\)	.	16e\)yy	.	16ee\)	.	.	.	16eee\)	.	.	.	.	.	.	.	.	.	.	.	.	.	16e\)	.	.	.	.	.	16cc\)	.	16ee'\)	.	16eee\)	.	.	.
16g'\	.	16g'\yy	.	16gg'\	.	16gg'/L	.	16ggg'\	.	8r	.	8r	8ryy	8r	.	8r	.	8r	8ryy	8r	.	16g'\	.	8r	.	8r	.	16gg'\	.	(16gg'\	.	16ggg'\	.	16ggg'\L	.
16f'\JJ	.	16f'\JJyy	.	16ff'\JJ	.	16ff'/JJ	.	16fff'\JJ	.	.	.	.	.	.	.	.	.	.	.	.	.	16f'\JJ	.	.	.	.	.	16ff'\JJ	.	16ff'\JJ)	.	16ggg'\JJ	.	16fff'\JJ	.
!	!	!	!	!	!	!	!	!	!	!	!	!	!	!	!	!	!	!	!	!	!	!	!	!	!	!	!	!	!	!	!	!LO:TX:a:t=Col Fl //	!	!	!
(16e\LL	.	(yy16e\LLyy	.	16ee\LL	.	(16ee/LL	.	(16eee\LL	.	4r	.	4r	4ryy	4r	.	4r	.	4r	4ryy	4r	.	(16e\LL	.	4r	.	4r	.	(16ee\LL	.	(16ee\LL	.	(yy16eee\LLyy	.	(16eee\LL	.
16d\)	.	16d\)yy	.	16dd\	.	16dd/)	.	16ddd\)	.	.	.	.	.	.	.	.	.	.	.	.	.	16d\)	.	.	.	.	.	16dd\)	.	16dd\)	.	16ddd\)yy	.	16ddd\)	.
16c'\	.	16c'\yy	.	16cc\	.	16cc'/	.	16ccc'\	.	.	.	.	.	.	.	.	.	.	.	.	.	16c'\	.	.	.	.	.	16cc'\	.	16cc'\	.	16ccc'\yy	.	16ccc'\	.
16Bn'\JJ	.	16Bn'\JJyy	.	16bn\JJ	.	16bn'/JJ	.	16bbn'\JJ	.	.	.	.	.	.	.	.	.	.	.	.	.	16Bn'\JJ	.	.	.	.	.	16bn'\JJ	.	16bn'\JJ	.	16bbn'\JJyy	.	16bbn'\JJ	.
(16c\LL	.	(yy16c\LLyy	.	16cc\LL	.	(16cc/LL	.	(16ccc\LL	.	2r	.	2r	2ryy	2r	.	2r	.	2r	2ryy	2r	.	(16c\LL	.	2r	.	2r	.	(16cc/LL	.	(16cc/LL	.	(yy16ccc\LLyy	.	(16ccc\LL	.
16B\)	.	16B\)yy	.	16b\	.	16b/)	.	16bb\)	.	.	.	.	.	.	.	.	.	.	.	.	.	16B\)	.	.	.	.	.	16b/)	.	16b/)	.	16bb\)yy	.	16bb\)	.
16A'\	.	16A'\yy	.	16a\	.	16a'/	.	16aa'\	.	.	.	.	.	.	.	.	.	.	.	.	.	16A'\	.	.	.	.	.	16a'/	.	16a'/	.	16aa'\yy	.	16aa'\	.
16G'\JJ	.	16G'\JJyy	.	16g\JJ	.	16g'/JJ	.	16gg'\JJ	.	.	.	.	.	.	.	.	.	.	.	.	.	16G'\JJ	.	.	.	.	.	16g'/JJ	.	16g'/JJ	.	16gg'\JJyy	.	16gg'\JJ	.
(16A\LL	.	(yy16A\LLyy	.	16a\LL	.	(16a/LL	.	(16aa\LL	.	.	.	.	.	.	.	.	.	.	.	.	.	(16A\LL	.	.	.	.	.	(16a/LL	.	(16a/LL	.	(yy16aa\LLyy	.	(16aa\LL	.
16G\)	.	16G\)yy	.	16g\	.	16g/)	.	16gg\)	.	.	.	.	.	.	.	.	.	.	.	.	.	16G\)	.	.	.	.	.	16g/)	.	16g/)	.	16gg\)yy	.	16gg\)	.
16F'\	.	16F'\yy	.	16f\	.	16f'/	.	16ff'\	.	.	.	.	.	.	.	.	.	.	.	.	.	16F'\	.	.	.	.	.	16f'/	.	16f'/	.	16ff'\yy	.	16ff'\	.
16E'\JJ	.	16E'\JJyy	.	16e\JJ	.	16e'/JJ	.	16ee'\JJ	.	.	.	.	.	.	.	.	.	.	.	.	.	16E'\JJ	.	.	.	.	.	16e'/JJ	.	16e'/JJ	.	16ee'\JJyy	.	16ee'\JJ	.
=25	=25	=25	=25	=25	=25	=25	=25	=25	=25	=25	=25	=25	=25	=25	=25	=25	=25	=25	=25	=25	=25	=25	=25	=25	=25	=25	=25	=25	=25	=25	=25	=25	=25	=25	=25
!	!	!	!	!	!	!	!	!	!	!	!	!	!	!	!	!	!	!	!	!	!	!	!	!	!	!	!	!LO:TX:t=P:problem=mixed beam	!	!LO:TX:t=P:problem=mixed beam	!	!	!	!	!
4F\	.	4F\yy	.	4f\	.	4f/	.	4ff\	.	4r	.	4r	4ryy	4r	.	4r	.	4r	4ryy	4r	.	8F\L	.	4r	.	4r	.	8f/L	.	8f/L	.	8ff\L	.	8ff\L	.
.	.	.	.	.	.	.	.	.	.	.	.	.	.	.	.	.	.	.	.	.	.	8F\J	.	.	.	.	.	8ff\J	.	8ff\J	.	8ff\J	.	8ff\J	.
4D\	.	4D\yy	.	4d\	.	4ff 4a\	.	4ddd 4ff\	.	4RaTT</	.	4Ree/	4Ra\	8r	.	4D\	.	4d/	4A\	8r	.	8r	.	8r	.	4ff 4dd\	.	8r	.	8r	.	8r	.	8r	.
.	.	.	.	.	.	.	.	.	.	.	.	.	.	8F\	.	.	.	.	.	8ff 8dd\	.	8D\	.	8a 8f\	.	.	.	8aa 8ff\	.	8ddd 8ff\	.	8ddd\	.	8fff\	.
4G\	.	4G\yy	.	4g\	.	4ee 4g/	.	4ccc 4ee\	.	4Ra/	.	4Ree/	4Ra\	8r	.	4G\	.	4e/	4c\	8r	.	8r	.	8r	.	4ee 4cc\	.	8r	.	8r	.	8r	.	8r	.
.	.	.	.	.	.	.	.	.	.	.	.	.	.	8C/	.	.	.	.	.	8ee 8cc\	.	8G\	.	8g\	.	.	.	8gg 8ee\	.	8ccc 8ee\	.	8ccc\	.	8eee\	.
4GG/	.	4GG/yy	.	4G/	.	4ff 4g/	.	4bbn 4dd\	.	4Ra/	.	4Ree/	4Ra\	8r	.	4GG/	.	4f/	4Bn\	8r	.	8r	.	8r	.	4dd 4g/	.	8r	.	8r	.	8r	.	8r	.
.	.	.	.	.	.	.	.	.	.	.	.	.	.	8F\	.	.	.	.	.	8dd 8bn\	.	8G 8GG/	.	8g 8f\	.	.	.	8ff 8dd\	.	8bbn 8dd\	.	8bbn\	.	8ddd\	.
=26	=26	=26	=26	=26	=26	=26	=26	=26	=26	=26	=26	=26	=26	=26	=26	=26	=26	=26	=26	=26	=26	=26	=26	=26	=26	=26	=26	=26	=26	=26	=26	=26	=26	=26	=26
*	*	*	*	*	*	*	*	*	*	*	*	*	*	*	*	*	*	*	*	*	*	*	*	*^	*	*^	*	*	*	*	*	*	*	*	*
8C/	.	8C/yy	.	8c/	.	8ee 8g/	.	8ccc 8ee\	.	8Ra/	.	8Ree/	4Ra\	8C/	.	8C/	.	8e/	8c\	8cc\	.	8c 8C\	.	8g 8c/	2ryy	.	8cc 8e/	8ryy	.	8ee 8cc\	.	8ccc 8ee\	.	8ccc\	.	8eee\	.
4A-X^<\	.	4A-X^<\yy	.	4A-X/	.	4ff 4a-X\	.	4bbn 4dd^<\	.	4RaT</	.	16Ree/LL	.	8r	.	4A-X\	.	4d 4Bn\	8ryy	4dd 4bn\	.	4A-X 4AA-X/	.	4a-X 4BX/	.	.	4dd/	4dd\	.	4dd 4bn\	.	4bbn 4dd^<\	.	4bbn^<\	.	4ddd\	.
.	.	.	.	.	.	.	.	.	.	.	.	16Ree/	.	.	.	.	.	.	.	.	.	.	.	.	.	.	.	.	.	.	.	.	.	.	.	.	.
.	.	.	.	.	.	.	.	.	.	.	.	16Ree/	4rAA	4r	.	.	.	.	4ryy	.	.	.	.	.	.	.	.	.	.	.	.	.	.	.	.	.	.
.	.	.	.	.	.	.	.	.	.	.	.	16Ree/JJ	.	.	.	.	.	.	.	.	.	.	.	.	.	.	.	.	.	.	.	.	.	.	.	.	.
8G\	.	8G\yy	.	8G/	.	8ff 8g\	.	8bb 8dd\	.	8Ra/	.	8Ree/	.	.	.	8G\	.	8d 8B\	.	8dd 8b\	.	8G 8GG/	.	8g 8B/	.	.	8dd/	8dd\	.	8dd 8b\	.	8bb 8dd\	.	8bb\	.	8ddd\	.
!	!	!	!	!	!	!	!	!	!	!	!	!	!	!	!	!	!	!	!	!	!	!	!	!	!	!	!	!	!	!	!	!	!	!	!	!LO:N:vis=4	!
8c\	.	8c\yy	.	8c/	.	8ee 8g\	.	8ccc 8ee\	.	8Ra/	.	8Ree/	4Ra\	8C/	.	8c\	.	8e 8c\	2ryy	8ee 8cc\	.	8c 8C\	.	8g 8c/	8ryy	.	8ee/	8cc\	.	8ee 8cc\	.	8ccc 8ee\	.	8ccc\	.	8eee\	.
4G^<\	.	4G^<\yy	.	4d 4G/	.	4gg 4bn\	.	4ddd^<\	.	4RaT</	.	16Ree/LL	.	8r	.	4G\	.	4d 4B\	.	4dd 4b\	.	4G 4GG/	.	4g/	4g\	.	4dd 4g/	8ryy	.	4gg 4b\	.	4bb 4dd^<\	.	4ddd^<\	.	4bbn\	.
.	.	.	.	.	.	.	.	.	.	.	.	16Ree/	.	.	.	.	.	.	.	.	.	.	.	.	.	.	.	.	.	.	.	.	.	.	.	.	.
.	.	.	.	.	.	.	.	.	.	.	.	16Ree/	4rAA	4r	.	.	.	.	.	.	.	.	.	.	.	.	.	4ryy	.	.	.	.	.	.	.	.	.
.	.	.	.	.	.	.	.	.	.	.	.	16Ree/JJ	.	.	.	.	.	.	.	.	.	.	.	.	.	.	.	.	.	.	.	.	.	.	.	.	.
8GG/	.	8GG/yy	.	8d 8G/	.	8gg 8b\	.	8ddd\	.	8Ra/	.	8Ree/	.	.	.	8GG/	.	8d 8B\	.	8dd 8b\	.	8G 8GG/	.	8g/	8g\	.	8dd 8g/	.	.	8gg 8b\	.	8bb 8dd\	.	8ddd\	.	8bb\	.
*	*	*	*	*	*	*	*	*	*	*	*	*	*	*	*	*	*	*v	*v	*	*	*	*	*	*	*	*v	*v	*	*	*	*	*	*	*	*	*
!!LO:PB:g=original
=27	=27	=27	=27	=27	=27	=27	=27	=27	=27	=27	=27	=27	=27	=27	=27	=27	=27	=27	=27	=27	=27	=27	=27	=27	=27	=27	=27	=27	=27	=27	=27	=27	=27	=27	=27
*	*	*	*	*	*	*	*	*	*	*	*	*	*	*	*	*	*	*	*^	*	*	*	*	*	*	*	*	*	*	*	*	*	*	*	*
8C/	.	8C/yy	.	8e 8c\	.	8gg 8cc\	.	8eee\	.	4Ra/	.	8Ree/	8Ra\	8C/	.	8C/	.	8e 8c\	8ee/	8cc\	.	8c 8C\	.	8g 8c/	2ryy	.	8ee 8cc\	.	8gg 8cc\	.	8ccc 8ee\	.	8ccc\	.	8ccc\	.
4A-X^\	.	4A-X^\yy	.	4A-X^/	.	4ff 4a-X/	.	4bbn 4dd^<\	.	.	.	16Ree/LL	8rAA	8r	.	4A-X\	.	4d 4Bn\	4dd/	4bn\	.	4A-X 4AA-X/	.	4a-X 4BX/	.	.	4dd\	.	4dd 4bn\	.	4bbn 4dd^<\	.	4bbn\	.	4ddd^<\	.
.	.	.	.	.	.	.	.	.	.	.	.	16Ree/	.	.	.	.	.	.	.	.	.	.	.	.	.	.	.	.	.	.	.	.	.	.	.	.
.	.	.	.	.	.	.	.	.	.	4r	.	16Ree/	4rAA	4r	.	.	.	.	.	.	.	.	.	.	.	.	.	.	.	.	.	.	.	.	.	.
.	.	.	.	.	.	.	.	.	.	.	.	16Ree/JJ	.	.	.	.	.	.	.	.	.	.	.	.	.	.	.	.	.	.	.	.	.	.	.	.
8G\	.	8G\yy	.	8G/	.	8ff 8g/	.	8bb 8dd\	.	.	.	8Ree/	.	.	.	8G\	.	8d 8B\	8dd/	8b\	.	8G 8GG/	.	8g 8B/	.	.	8dd\	.	8dd 8b\	.	8bb 8dd\	.	8bb\	.	8ddd\	.
8c\	.	8c\yy	.	8c/	.	8ee 8g/	.	8ccc 8ee\	.	4Ra/	.	8Ree/	8Ra\	8C/	.	8c\	.	8e 8c\	8ee/	8cc\	.	8c 8C\	.	8g 8c/	8ryy	.	8ee 8cc\	.	8ee 8cc\	.	8ccc 8ee\	.	8ccc\	.	8eee\	.
4G^<\	.	4G^<\yy	.	4d 4G^/	.	4gg 4bn\	.	4ddd^<\	.	.	.	16Ree/LL	8rAA	8r	.	4G\	.	4d 4B\	4dd/	4b\	.	4G 4GG/	.	4g/	4g\	.	4dd\	.	4gg 4b\	.	4bb 4dd^<\	.	4ddd\	.	4bbn^<\	.
.	.	.	.	.	.	.	.	.	.	.	.	16Ree/	.	.	.	.	.	.	.	.	.	.	.	.	.	.	.	.	.	.	.	.	.	.	.	.
.	.	.	.	.	.	.	.	.	.	4r	.	16Ree/	4rAA	4r	.	.	.	.	.	.	.	.	.	.	.	.	.	.	.	.	.	.	.	.	.	.
.	.	.	.	.	.	.	.	.	.	.	.	16Ree/JJ	.	.	.	.	.	.	.	.	.	.	.	.	.	.	.	.	.	.	.	.	.	.	.	.
8GG/	.	8GG/yy	.	8d 8G/	.	8gg 8b\	.	8ddd\	.	.	.	8Ree/	.	.	.	8GG/	.	8d 8B\	8dd/	8b\	.	8G 8GG/	.	8g/	8g\	.	8dd\	.	8gg 8b\	.	8bb 8dd\	.	8ddd\	.	8bb\	.
*	*	*	*	*	*	*	*	*	*	*	*	*	*	*	*	*	*	*	*v	*v	*	*	*	*v	*v	*	*	*	*	*	*	*	*	*	*	*
=28	=28	=28	=28	=28	=28	=28	=28	=28	=28	=28	=28	=28	=28	=28	=28	=28	=28	=28	=28	=28	=28	=28	=28	=28	=28	=28	=28	=28	=28	=28	=28	=28	=28	=28
*	*	*	*	*	*	*	*	*	*	*	*	*	*	*	*	*	*	*	*	*	*	*	*	*	*^	*	*	*	*	*	*	*	*	*
*	*	*	*	*	*	*	*	*	*	*	*	*rep	*rep	*	*	*	*	*	*	*	*	*	*	*	*	*	*	*	*	*	*	*	*	*	*
8C/	.	8C/yy	.	8e 8c\	.	8gg 8cc\	.	8eee\	.	8Ra/	.	8Ree/	8Ra\	8C/	.	8C/	.	8e 8c\	8ee 8cc\	.	8c 8C\	.	8g 8c/	.	8ee/	8cc\	.	8gg 8cc\	.	8ccc 8ee\	.	8eee\	.	8ccc\	.
4A-X^<\	.	4A-X^<\yy	.	4A-X^/	.	4ff 4a-X/	.	4bbn 4dd^<\	.	4RaT/	.	16Ree/LL	8rAA	8r	.	4A-X\	.	4d 4Bn\	4dd 4bn\	.	4A-X 4AA-X/	.	4a-X 4BX^/	.	4dd/	4dd\	.	4dd 4bn\	.	4bbn 4dd^<\	.	4bbn\	.	4ddd^<\	.
.	.	.	.	.	.	.	.	.	.	.	.	16Ree/	.	.	.	.	.	.	.	.	.	.	.	.	.	.	.	.	.	.	.	.	.	.	.
.	.	.	.	.	.	.	.	.	.	.	.	16Ree/	4rAA	4r	.	.	.	.	.	.	.	.	.	.	.	.	.	.	.	.	.	.	.	.	.
.	.	.	.	.	.	.	.	.	.	.	.	16Ree/JJ	.	.	.	.	.	.	.	.	.	.	.	.	.	.	.	.	.	.	.	.	.	.	.
8G\	.	8G\yy	.	8G/	.	8ff 8g/	.	8bb 8dd\	.	8Ra/	.	8Ree/	.	.	.	8G\	.	8d 8B\	8dd 8b\	.	8G 8GG/	.	8g 8B/	.	8dd/	8dd\	.	8dd 8b\	.	8bb 8dd\	.	8bb\	.	8ddd\	.
*	*	*	*	*	*	*	*	*	*	*rep	*	*	*	*	*	*	*	*	*	*	*	*	*	*	*	*	*	*	*	*	*	*	*	*	*
8c\	.	8c\yy	.	8c/	.	8ee 8g/	.	8ccc 8ee\	.	8Ra/	.	8Ree/	8Ra\	8C/	.	8c\	.	8e 8c\	8ee 8cc\	.	8c 8C\	.	8g 8c/	.	8ee/	8cc\	.	8ee 8cc\	.	8ccc 8ee\	.	8ccc\	.	8eee\	.
4G^<\	.	4G^<\yy	.	4g 4Bn^<\	.	4bbn 4dd\	.	4ggg^<\	.	4RaT/	.	16Ree/LL	8rAA	8r	.	4G\	.	4d 4B\	4dd 4b\	.	4G 4GG/	.	4g^<\	.	4dd 4g/	8ryy	.	4dd 4b\	.	4bb 4gg^<\	.	4bb\	.	4ggg^<\	.
.	.	.	.	.	.	.	.	.	.	.	.	16Ree/	.	.	.	.	.	.	.	.	.	.	.	.	.	.	.	.	.	.	.	.	.	.	.
.	.	.	.	.	.	.	.	.	.	.	.	16Ree/	4rAA	4r	.	.	.	.	.	.	.	.	.	.	.	4ryy	.	.	.	.	.	.	.	.	.
.	.	.	.	.	.	.	.	.	.	.	.	16Ree/JJ	.	.	.	.	.	.	.	.	.	.	.	.	.	.	.	.	.	.	.	.	.	.	.
8G\	.	8G\yy	.	8g 8B\	.	8bb 8dd\	.	8ggg\	.	8Ra/	.	8Ree/	.	.	.	8GG/	.	8d 8B\	8dd 8b\	.	8G 8GG/	.	8g\	.	8dd 8g/	.	.	8dd 8b\	.	8bb 8gg\	.	8bb\	.	8ggg\	.
*	*	*	*	*	*	*	*	*	*	*Xrep	*	*Xrep	*Xrep	*	*	*	*	*	*	*	*	*	*	*	*	*	*	*	*	*	*	*	*	*	*
=29	=29	=29	=29	=29	=29	=29	=29	=29	=29	=29	=29	=29	=29	=29	=29	=29	=29	=29	=29	=29	=29	=29	=29	=29	=29	=29	=29	=29	=29	=29	=29	=29	=29	=29	=29
*	*	*	*	*	*	*	*	*	*	*rep	*	*rep	*rep	*rep	*	*	*	*	*	*	*	*	*	*	*	*	*	*	*	*	*	*	*	*	*
8c\	.	8c\yy	.	8g 8c\	.	8ccc 8ee\	.	8eee\	.	8Ra/	.	8Ree/	8Ra\	8C/	.	8C/	.	8e 8c\	8ee 8cc\	.	8c 8C\	.	8g 8c/	.	8ee 8cc\	2ryy	.	8ee 8cc\	.	8ccc 8ee\	.	8ccc\	.	8eee\	.
4G^<\	.	4G^<\yy	.	4g 4Bn^<\	.	4bbn 4dd\	.	4ggg^<\	.	4RaT/	.	16Ree/LL	8rAA	8r	.	4G\	.	4g 4Bn\	4gg 4bn\	.	4G 4GG/	.	4g^<\	.	4dd 4g/	.	.	4dd 4bn\	.	4bbn 4gg^<\	.	4bbn\	.	4ggg^<\	.
.	.	.	.	.	.	.	.	.	.	.	.	16Ree/	.	.	.	.	.	.	.	.	.	.	.	.	.	.	.	.	.	.	.	.	.	.	.
.	.	.	.	.	.	.	.	.	.	.	.	16Ree/	4rAA	4r	.	.	.	.	.	.	.	.	.	.	.	.	.	.	.	.	.	.	.	.	.
.	.	.	.	.	.	.	.	.	.	.	.	16Ree/JJ	.	.	.	.	.	.	.	.	.	.	.	.	.	.	.	.	.	.	.	.	.	.	.
8G\	.	8G\yy	.	8g 8B\	.	8bb 8dd\	.	8ggg\	.	8Ra/	.	8Ree/	.	.	.	8G\	.	8g 8B\	8gg 8b\	.	8G 8GG/	.	8g\	.	8dd 8g/	.	.	8dd 8b\	.	8bb 8gg\	.	8bb\	.	8ggg\	.
!	!	!	!	!LO:N:vis=4	!	!	!	!	!	!	!	!	!	!	!	!	!	!	!	!	!	!	!	!	!	!	!	!	!	!	!	!	!	!	!
8c\	.	8c\yy	.	8g 8c\	.	8ccc 8ee\	.	8eee\	.	8Ra/	.	8Ree/	8Ra\	8C/	.	8C/	.	8e 8c\	8ee 8cc\	.	8c 8C\	.	8g 8c/	.	8ee/	8cc\	.	8ee 8cc\	.	8ccc 8ee\	.	8ccc\	.	8eee\	.
4G^<\	.	4G^<\yy	.	4g 4B^<\	.	4bb 4dd\	.	4ggg^<\	.	4RaT/	.	16Ree/LL	8rAA	8r	.	4G\	.	4g 4B\	4gg 4b\	.	4G 4GG/	.	4g^<\	.	4dd 4g/	8ryy	.	4dd 4b\	.	4bb 4gg^<\	.	4bb\	.	4ggg^<\	.
.	.	.	.	.	.	.	.	.	.	.	.	16Ree/	.	.	.	.	.	.	.	.	.	.	.	.	.	.	.	.	.	.	.	.	.	.	.
.	.	.	.	.	.	.	.	.	.	.	.	16Ree/	4rAA	4r	.	.	.	.	.	.	.	.	.	.	.	4ryy	.	.	.	.	.	.	.	.	.
.	.	.	.	.	.	.	.	.	.	.	.	16Ree/JJ	.	.	.	.	.	.	.	.	.	.	.	.	.	.	.	.	.	.	.	.	.	.	.
8G\	.	8G\yy	.	8g 8B\	.	8bb 8dd\	.	8ggg\	.	8Ra/	.	8Ree/	.	.	.	8G\	.	8g 8B\	8gg 8b\	.	8G 8GG/	.	8g\	.	8dd 8g/	.	.	8dd 8b\	.	8bb 8gg\	.	8bb\	.	8ggg\	.
*	*	*	*	*	*	*	*	*	*	*Xrep	*	*Xrep	*Xrep	*Xrep	*	*	*	*	*	*	*	*	*	*	*	*	*	*	*	*	*	*	*	*	*
=30	=30	=30	=30	=30	=30	=30	=30	=30	=30	=30	=30	=30	=30	=30	=30	=30	=30	=30	=30	=30	=30	=30	=30	=30	=30	=30	=30	=30	=30	=30	=30	=30	=30	=30	=30
*	*	*	*	*	*	*	*	*	*	*	*	*	*	*	*	*	*	*^	*	*	*	*	*	*	*	*	*	*^	*	*	*	*	*	*	*
!	!	!	!	!	!	!	!	!	!	!	!	!	!	!	!LO:DY:rj	!	!	!	!	!	!	!	!	!	!	!	!	!	!	!	!	!	!	!	!	!	!
4C/	.	4C/yy	.	4g 4c\	.	4ccc 4ee\	.	4ccc\	.	4Ra/	.	4Ree/	4Ra\	16C/LL	ff	4C/	.	4e/	4c\	4ee 4cc\	.	4c 4C\	.	4g 4c/	.	4ee/	4cc\	.	4ee/	4cc\	.	4ccc 4ee\	.	4ccc\	.	4eee\	.
.	.	.	.	.	.	.	.	.	.	.	.	.	.	16C/	.	.	.	.	.	.	.	.	.	.	.	.	.	.	.	.	.	.	.	.	.	.	.
.	.	.	.	.	.	.	.	.	.	.	.	.	.	16C/	.	.	.	.	.	.	.	.	.	.	.	.	.	.	.	.	.	.	.	.	.	.	.
.	.	.	.	.	.	.	.	.	.	.	.	.	.	16C/	.	.	.	.	.	.	.	.	.	.	.	.	.	.	.	.	.	.	.	.	.	.	.
!	!LO:DY:rj	!	!LO:DY:rj	!	!LO:DY:rj	!	!	!	!LO:DY:rj	!	!	!	!	!	!	!	!	!	!	!	!	!	!	!	!LO:DY:rj	!	!	!	!	!	!LO:DY:rj	!	!	!	!LO:DY:rj	!	!LO:DY:rj
4c\	ff	4c\yy	ffyy	16gLL 16c\	ff	16ggLL 16cc\	.	16cccLL 16ee\	ff	2.RaTT/	.	16Ree/LL	4Ra\	16C/	.	4c\	.	[2.e/	[>2.c\	8.cc\L	.	4c 4C\	.	[2.g [>2.c/	ff	[2.ee/	[>2.cc\	.	[2.ee/	[>2.cc\	ff	[2.ccc [>2.ee\	.	2.cccTT\	ff	[2.eee\	ff
.	.	.	.	16g 16c\	.	16gg 16cc\	.	16ccc 16ee\	.	.	.	16Ree/	.	16C/	.	.	.	.	.	.	.	.	.	.	.	.	.	.	.	.	.	.	.	.	.	.	.
.	.	.	.	16g 16c\	.	16gg 16cc\	.	16ccc 16ee\	.	.	.	16Ree/	.	16C/	.	.	.	.	.	.	.	.	.	.	.	.	.	.	.	.	.	.	.	.	.	.	.
.	.	.	.	16g 16c\	.	16gg 16cc\	.	16ccc 16ee\	.	.	.	16Ree/	.	16C/	.	.	.	.	.	16cc\Jk	.	.	.	.	.	.	.	.	.	.	.	.	.	.	.	.	.
4G\	.	4G\yy	.	16g 16c\	.	16gg 16cc\	.	16ccc 16ee\	.	.	.	16Ree/	4Ra\	16C/	.	4G\	.	.	.	8.g/L	.	4G 4GG/	.	.	.	.	.	.	.	.	.	.	.	.	.	.	.
.	.	.	.	16g 16c\	.	16gg 16cc\	.	16ccc 16ee\	.	.	.	16Ree/	.	16C/	.	.	.	.	.	.	.	.	.	.	.	.	.	.	.	.	.	.	.	.	.	.	.
.	.	.	.	16g 16c\	.	16gg 16cc\	.	16ccc 16ee\	.	.	.	16Ree/	.	16C/	.	.	.	.	.	.	.	.	.	.	.	.	.	.	.	.	.	.	.	.	.	.	.
.	.	.	.	16g 16c\	.	16gg 16cc\	.	16ccc 16ee\	.	.	.	16Ree/	.	16C/	.	.	.	.	.	16g/Jk	.	.	.	.	.	.	.	.	.	.	.	.	.	.	.	.	.
4E\	.	4E\yy	.	16g 16c\	.	16gg 16cc\	.	16ccc 16ee\	.	.	.	16Ree/	4Ra\	16C/	.	4E\	.	.	.	8.e/L	.	4E 4EE/	.	.	.	.	.	.	.	.	.	.	.	.	.	.	.
.	.	.	.	16g 16c\	.	16gg 16cc\	.	16ccc 16ee\	.	.	.	16Ree/	.	16C/	.	.	.	.	.	.	.	.	.	.	.	.	.	.	.	.	.	.	.	.	.	.	.
.	.	.	.	16g 16c\	.	16gg 16cc\	.	16ccc 16ee\	.	.	.	16Ree/	.	16C/	.	.	.	.	.	.	.	.	.	.	.	.	.	.	.	.	.	.	.	.	.	.	.
.	.	.	.	16gJJ 16c\	.	16ggJJ 16cc\	.	16cccJJ 16ee\	.	.	.	16Ree/JJ	.	16C/JJ	.	.	.	.	.	16e/Jk	.	.	.	.	.	.	.	.	.	.	.	.	.	.	.	.	.
!!LO:PB:g=original
=31	=31	=31	=31	=31	=31	=31	=31	=31	=31	=31	=31	=31	=31	=31	=31	=31	=31	=31	=31	=31	=31	=31	=31	=31	=31	=31	=31	=31	=31	=31	=31	=31	=31	=31	=31	=31	=31
!	!	!	!	!	!	!	!	!	!	!	!	!	!	!	!	!	!	!LO:TX:a:t=P:problem=brak zakończenia ligatury	!LO:TX:a:t=P:problem=brak zakończenia ligatury	!	!	!	!	!LO:TX:a:t=P:problem=brak zakończenia ligatur	!	!LO:TX:a:t=P:problem=brak zakończenia ligatury	!LO:TX:a:t=P:problem=brak zakończenia ligatury	!	!LO:TX:a:t=P:problem=brak zakończenia ligatury	!LO:TX:a:t=P:problem=brak zakończenia ligatury	!	!LO:TX:a:t=P:problem=brak zakończenia ligatur	!	!	!	!LO:TX:a:t=P:problem=brak zakończenia ligatury	!
4C/	.	4C/yy	.	16gLL 16c\	.	16ggLL 16cc\	.	16cccLL 16ee\	.	1RaTT	.	16Ree/LL	4Ra\	1CTT	.	4C/	.	1e]	1c]	8.c/L	.	4C 4CC/	.	1g] 1c]	.	1ee]	1cc]	.	1ee]	1cc]	.	1ccc] 1ee]	.	1ccc	.	1eee]	.
.	.	.	.	16g 16c\	.	16gg 16cc\	.	16ccc 16ee\	.	.	.	16Ree/	.	.	.	.	.	.	.	.	.	.	.	.	.	.	.	.	.	.	.	.	.	.	.	.	.
.	.	.	.	16g 16c\	.	16gg 16cc\	.	16ccc 16ee\	.	.	.	16Ree/	.	.	.	.	.	.	.	.	.	.	.	.	.	.	.	.	.	.	.	.	.	.	.	.	.
.	.	.	.	16g 16c\	.	16gg 16cc\	.	16ccc 16ee\	.	.	.	16Ree/	.	.	.	.	.	.	.	16c/Jk	.	.	.	.	.	.	.	.	.	.	.	.	.	.	.	.	.
4c\	.	4c\yy	.	16g 16c\	.	16gg 16cc\	.	16ccc 16ee\	.	.	.	16Ree/	4Ra\	.	.	4c\	.	.	.	8.cc/L	.	4c 4C\	.	.	.	.	.	.	.	.	.	.	.	.	.	.	.
.	.	.	.	16g 16c\	.	16gg 16cc\	.	16ccc 16ee\	.	.	.	16Ree/	.	.	.	.	.	.	.	.	.	.	.	.	.	.	.	.	.	.	.	.	.	.	.	.	.
.	.	.	.	16g 16c\	.	16gg 16cc\	.	16ccc 16ee\	.	.	.	16Ree/	.	.	.	.	.	.	.	.	.	.	.	.	.	.	.	.	.	.	.	.	.	.	.	.	.
.	.	.	.	16g 16c\	.	16gg 16cc\	.	16ccc 16ee\	.	.	.	16Ree/	.	.	.	.	.	.	.	16cc/Jk	.	.	.	.	.	.	.	.	.	.	.	.	.	.	.	.	.
4G\	.	4G\yy	.	16g 16c\	.	16gg 16cc\	.	16ccc 16ee\	.	.	.	16Ree/	4Ra\	.	.	4G\	.	.	.	8.g/L	.	4G 4GG/	.	.	.	.	.	.	.	.	.	.	.	.	.	.	.
.	.	.	.	16g 16c\	.	16gg 16cc\	.	16ccc 16ee\	.	.	.	16Ree/	.	.	.	.	.	.	.	.	.	.	.	.	.	.	.	.	.	.	.	.	.	.	.	.	.
.	.	.	.	16g 16c\	.	16gg 16cc\	.	16ccc 16ee\	.	.	.	16Ree/	.	.	.	.	.	.	.	.	.	.	.	.	.	.	.	.	.	.	.	.	.	.	.	.	.
.	.	.	.	16g 16c\	.	16gg 16cc\	.	16ccc 16ee\	.	.	.	16Ree/	.	.	.	.	.	.	.	16g/Jk	.	.	.	.	.	.	.	.	.	.	.	.	.	.	.	.	.
4E\	.	4E\yy	.	16g 16c\	.	16gg 16cc\	.	16ccc 16ee\	.	.	.	16Ree/	4Ra\	.	.	4E\	.	.	.	8.e/L	.	4E 4EE/	.	.	.	.	.	.	.	.	.	.	.	.	.	.	.
.	.	.	.	16g 16c\	.	16gg 16cc\	.	16ccc 16ee\	.	.	.	16Ree/	.	.	.	.	.	.	.	.	.	.	.	.	.	.	.	.	.	.	.	.	.	.	.	.	.
.	.	.	.	16g 16c\	.	16gg 16cc\	.	16ccc 16ee\	.	.	.	16Ree/	.	.	.	.	.	.	.	.	.	.	.	.	.	.	.	.	.	.	.	.	.	.	.	.	.
.	.	.	.	16gJJ 16c\	.	16ggJJ 16cc\	.	16cccJJ 16ee\	.	.	.	16Ree/JJ	.	.	.	.	.	.	.	16e/Jk	.	.	.	.	.	.	.	.	.	.	.	.	.	.	.	.	.
*	*	*	*	*Xtremolo	*	*	*	*	*	*	*	*	*	*	*	*	*	*	*	*	*	*	*	*	*	*	*	*	*	*	*	*	*	*	*	*	*
*	*	*	*	*	*	*	*	*	*	*	*	*	*	*	*	*	*	*v	*v	*	*	*	*	*	*	*	*	*	*	*	*	*	*	*	*	*	*
=32	=32	=32	=32	=32	=32	=32	=32	=32	=32	=32	=32	=32	=32	=32	=32	=32	=32	=32	=32	=32	=32	=32	=32	=32	=32	=32	=32	=32	=32	=32	=32	=32	=32	=32	=32	=32
!	!	!	!	!	!	!	!	!	!	!	!	!LO:TX:a:i:t=Anusia ) Co za nieszczęście cała wieś może spłonąć...\ni czegóż stoię tu jak przykuta... muszę\ngo znaleść...[[muszę mieć pewność.\nA. Zmiejsca się ruszyć niemogę chciałabym się ukryć pod ziemię.]]	!	!	!	!	!	!	!	!	!	!	!	!	!	!	!	!	!	!	!	!	!	!	!	!
(16C/LL	p	(yy<16C/LLyy	pyy	4g 4c\	.	4gg 4cc\	.	4ccc 4ee\	.	4Ra/	.	4Ree/	4Ra\	4C/	.	4C/	.	4e 4c\	4c/	.	4C 4CC/	.	4g 4c/	.	4ee/	4cc\	.	4ee/	4cc\	.	4ccc 4ee\	.	4ccc\	.	4eee\	.
16BBn/	.	16BBn/yy	.	.	.	.	.	.	.	.	.	.	.	.	.	.	.	.	.	.	.	.	.	.	.	.	.	.	.	.	.	.	.	.	.	.
16C/	.	16C/yy	.	.	.	.	.	.	.	.	.	.	.	.	.	.	.	.	.	.	.	.	.	.	.	.	.	.	.	.	.	.	.	.	.	.
16BB/JJ	.	16BB/JJyy	.	.	.	.	.	.	.	.	.	.	.	.	.	.	.	.	.	.	.	.	.	.	.	.	.	.	.	.	.	.	.	.	.	.
8C/)	.	8C/)yy	.	4r	.	4r	.	4r	.	4ryy	.	4ryy	4ryy	4ryy	.	4ryy	.	4ryy	4ryy	.	4ryy	.	4ryy	.	4ryy	4ryy	.	4ryy	4ryy	.	4ryy	.	4ryy	.	4ryy	.
8r	.	8ryy	.	.	.	.	.	.	.	.	.	.	.	.	.	.	.	.	.	.	.	.	.	.	.	.	.	.	.	.	.	.	.	.	.	.
!	!	!	!	!	!LO:DY:rj	!	!	!	!	!	!	!	!	!	!	!	!	!	!	!	!	!	!	!	!	!	!	!	!	!	!	!	!	!	!	!
(16C/LL	.	(yy<16C/LLyy	.	(16c/LL	p	2r	.	2r	.	2ryy	.	2ryy	2ryy	2ryy	.	2ryy	.	2ryy	2ryy	.	2ryy	.	2ryy	.	2ryy	2ryy	.	2ryy	2ryy	.	2ryy	.	2ryy	.	2ryy	.
16BB/	.	16BB/yy	.	16Bn/	.	.	.	.	.	.	.	.	.	.	.	.	.	.	.	.	.	.	.	.	.	.	.	.	.	.	.	.	.	.	.	.
16C/	.	16C/yy	.	16c/	.	.	.	.	.	.	.	.	.	.	.	.	.	.	.	.	.	.	.	.	.	.	.	.	.	.	.	.	.	.	.	.
16BB/JJ	.	16BB/JJyy	.	16B/JJ	.	.	.	.	.	.	.	.	.	.	.	.	.	.	.	.	.	.	.	.	.	.	.	.	.	.	.	.	.	.	.	.
8C/)	.	8C/)yy	.	8c/)	.	.	.	.	.	.	.	.	.	.	.	.	.	.	.	.	.	.	.	.	.	.	.	.	.	.	.	.	.	.	.	.
8r	.	8ryy	.	8r	.	.	.	.	.	.	.	.	.	.	.	.	.	.	.	.	.	.	.	.	.	.	.	.	.	.	.	.	.	.	.	.
*	*	*	*	*	*	*	*	*	*	*	*	*	*	*	*	*	*	*	*	*	*	*	*	*	*v	*v	*	*	*	*	*	*	*	*	*	*
*	*	*	*	*	*	*	*	*	*	*	*	*v	*v	*	*	*	*	*	*	*	*	*	*	*	*	*	*v	*v	*	*	*	*	*	*	*
=33	=33	=33	=33	=33	=33	=33	=33	=33	=33	=33	=33	=33	=33	=33	=33	=33	=33	=33	=33	=33	=33	=33	=33	=33	=33	=33	=33	=33	=33	=33	=33	=33	=33
!	!	!	!	!	!	!	!	!	!LO:DY:rj	!	!	!	!	!	!	!	!	!	!	!	!	!	!	!	!	!	!	!	!	!	!	!	!
[1C	.	[yy<1Cyy	.	[1c	.	2.f/	.	(2.a-X/	p	1ryy	.	1ryy	1ryy	.	1ryy	.	1ryy	1ryy	.	1ryy	.	1ryy	.	1ryy	.	1ryy	.	1ryy	.	1ryy	.	1ryy	.
.	.	.	.	.	.	4a-X/	.	4cc\)	.	.	.	.	.	.	.	.	.	.	.	.	.	.	.	.	.	.	.	.	.	.	.	.	.
=34	=34	=34	=34	=34	=34	=34	=34	=34	=34	=34	=34	=34	=34	=34	=34	=34	=34	=34	=34	=34	=34	=34	=34	=34	=34	=34	=34	=34	=34	=34	=34	=34	=34
(16C/LL]	.	(yy<16C/LL]yy	.	(16c/LL]	.	4e/	.	4g/	.	1ryy	.	1ryy	1ryy	.	1ryy	.	1ryy	1ryy	.	1ryy	.	1ryy	.	1ryy	.	1ryy	.	1ryy	.	1ryy	.	1ryy	.
16BBn/	.	16BBn/yy	.	16Bn/	.	.	.	.	.	.	.	.	.	.	.	.	.	.	.	.	.	.	.	.	.	.	.	.	.	.	.	.	.
16C/	.	16C/yy	.	16c/	.	.	.	.	.	.	.	.	.	.	.	.	.	.	.	.	.	.	.	.	.	.	.	.	.	.	.	.	.
16BB/JJ	.	16BB/JJyy	.	16B/JJ	.	.	.	.	.	.	.	.	.	.	.	.	.	.	.	.	.	.	.	.	.	.	.	.	.	.	.	.	.
8C/)	.	8C/)yy	.	8c/)	.	4r	.	4r	.	.	.	.	.	.	.	.	.	.	.	.	.	.	.	.	.	.	.	.	.	.	.	.	.
8r	.	8ryy	.	8r	.	.	.	.	.	.	.	.	.	.	.	.	.	.	.	.	.	.	.	.	.	.	.	.	.	.	.	.	.
(16C/LL	.	(yy<16C/LLyy	.	(16c/LL	.	2r	.	2r	.	.	.	.	.	.	.	.	.	.	.	.	.	.	.	.	.	.	.	.	.	.	.	.	.
16BB/	.	16BB/yy	.	16B/	.	.	.	.	.	.	.	.	.	.	.	.	.	.	.	.	.	.	.	.	.	.	.	.	.	.	.	.	.
16C/	.	16C/yy	.	16c/	.	.	.	.	.	.	.	.	.	.	.	.	.	.	.	.	.	.	.	.	.	.	.	.	.	.	.	.	.
16BB/JJ	.	16BB/JJyy	.	16B/JJ	.	.	.	.	.	.	.	.	.	.	.	.	.	.	.	.	.	.	.	.	.	.	.	.	.	.	.	.	.
8C/)	.	8C/)yy	.	8c/)	.	.	.	.	.	.	.	.	.	.	.	.	.	.	.	.	.	.	.	.	.	.	.	.	.	.	.	.	.
8r	.	8ryy	.	8r	.	.	.	.	.	.	.	.	.	.	.	.	.	.	.	.	.	.	.	.	.	.	.	.	.	.	.	.	.
!!LO:PB:g=original
=35	=35	=35	=35	=35	=35	=35	=35	=35	=35	=35	=35	=35	=35	=35	=35	=35	=35	=35	=35	=35	=35	=35	=35	=35	=35	=35	=35	=35	=35	=35	=35	=35	=35
1C	.	1Cyy	.	[1c	.	(>2.f/	.	(>2.a-X/	.	1ryy	.	1ryy	1ryy	.	1ryy	.	1ryy	1ryy	.	1ryy	.	1ryy	.	1ryy	.	1ryy	.	1ryy	.	1ryy	.	1ryy	.
.	.	.	.	.	.	4d/	.	4f/	.	.	.	.	.	.	.	.	.	.	.	.	.	.	.	.	.	.	.	.	.	.	.	.	.
=36	=36	=36	=36	=36	=36	=36	=36	=36	=36	=36	=36	=36	=36	=36	=36	=36	=36	=36	=36	=36	=36	=36	=36	=36	=36	=36	=36	=36	=36	=36	=36	=36	=36
4C/	.	4C/yy	.	4c\]	.	4e/)	.	4g/)	.	1ryy	.	1ryy	1ryy	.	1ryy	.	1ryy	1ryy	.	1ryy	.	1ryy	.	1ryy	.	1ryy	.	1ryy	.	1ryy	.	1ryy	.
4r	.	4ryy	.	4r	.	4r	.	4r	.	.	.	.	.	.	.	.	.	.	.	.	.	.	.	.	.	.	.	.	.	.	.	.	.
2r	.	2ryy	.	2r	.	2r	.	2r	.	.	.	.	.	.	.	.	.	.	.	.	.	.	.	.	.	.	.	.	.	.	.	.	.
=37||	=37||	=37||	=37||	=37||	=37||	=37||	=37||	=37||	=37||	=37||	=37||	=37||	=37||	=37||	=37||	=37||	=37||	=37||	=37||	=37||	=37||	=37||	=37||	=37||	=37||	=37||	=37||	=37||	=37||	=37||	=37||	=37||	=37||
!	!	!	!	!	!	!	!	!	!	!LO:TX:a:i:t=/&colon; Anna sama &colon;/\n[[muszę się tam znaleźć,\naby się dowiedzieć\no wszystkiem]]\nmuszę go znaleść...\nmuszę mieć pewność.	!	!	!	!	!	!	!	!	!	!	!	!	!	!	!	!	!	!	!	!	!	!	!
1ryy	.	1ryyyy	.	1ryy	.	1ryy	.	1ryy	.	1ryy	.	1ryy	1ryy	.	1ryy	.	1ryy	1ryy	.	1ryy	.	1ryy	.	1ryy	.	1ryy	.	1ryy	.	1ryy	.	1ryy	.
=38||	=38||	=38||	=38||	=38||	=38||	=38||	=38||	=38||	=38||	=38||	=38||	=38||	=38||	=38||	=38||	=38||	=38||	=38||	=38||	=38||	=38||	=38||	=38||	=38||	=38||	=38||	=38||	=38||	=38||	=38||	=38||	=38||	=38||
*	*	*	*	*	*	*	*	*	*	*	*	*	*	*	*	*	*	*	*	*^	*	*	*	*	*	*^	*	*^	*	*	*	*	*
*tremolo	*	*tremolo	*	*tremolo	*	*	*	*	*	*	*	*	*	*	*	*	*	*	*	*	*	*	*	*	*	*	*	*	*	*	*	*	*	*	*	*
!	!LO:DY:rj	!	!LO:DY:rj	!	!LO:DY:a:rj	!	!	!	!LO:DY:rj	!	!	!	!	!	!	!	!	!	!	!	!	!LO:DY:rj	!	!	!	!LO:DY:rj	!	!	!	!	!	!	!	!	!	!
16B-X\LL	f	16B-X\LLyy	fyy	16c#X\LL	f	16e/LL	.	16g/LL	f	1r	.	1r	1r	.	1BB-X	.	1e 1G	[1g [>1c#X	.	4rc	1BB-X	f	(1b- [1g	.	[1ee [1cc#X	f	4r	1re	.	4r	1re	.	1r	.	4r	.
16B-\	.	16B-\yy	.	16c#\	.	16e/	.	16g/	.	.	.	.	.	.	.	.	.	.	.	.	.	.	.	.	.	.	.	.	.	.	.	.	.	.	.	.
16B-\	.	16B-\yy	.	16c#\	.	16e/	.	16g/	.	.	.	.	.	.	.	.	.	.	.	.	.	.	.	.	.	.	.	.	.	.	.	.	.	.	.	.
16B-\	.	16B-\yy	.	16c#\	.	16e/	.	16g/	.	.	.	.	.	.	.	.	.	.	.	.	.	.	.	.	.	.	.	.	.	.	.	.	.	.	.	.
16B-\	.	16B-\yy	.	16c#\	.	16e/	.	16g/	.	.	.	.	.	.	.	.	.	.	.	8.rc	.	.	.	.	.	.	8.r	.	.	8.r	.	.	.	.	8.r	.
16B-\	.	16B-\yy	.	16c#\	.	16e/	.	16g/	.	.	.	.	.	.	.	.	.	.	.	.	.	.	.	.	.	.	.	.	.	.	.	.	.	.	.	.
16B-\	.	16B-\yy	.	16c#\	.	16e/	.	16g/	.	.	.	.	.	.	.	.	.	.	.	.	.	.	.	.	.	.	.	.	.	.	.	.	.	.	.	.
*	*	*	*	*	*	*	*	*	*	*	*	*	*	*	*	*	*	*	*	*clefC4	*	*	*	*	*	*	*	*	*	*	*	*	*	*	*	*
!	!	!	!	!	!	!	!	!	!	!	!	!	!	!	!	!	!	!	!	!	!	!	!	!	!	!	!	!	!	!	!	!	!	!	!	!LO:DY:rj
16B-\	.	16B-\yy	.	16c#\	.	16e/	.	16g/	.	.	.	.	.	.	.	.	.	.	.	16e/	.	.	.	.	.	.	16ee/	.	.	16ee/	.	.	.	.	16eee|\	f
16B-\	.	16B-\yy	.	16c#\	.	16e/	.	16g/	.	.	.	.	.	.	.	.	.	.	.	(2g/	.	.	.	.	.	.	(2gg/	.	.	(2gg/	.	.	.	.	(2ggg\	.
16B-\	.	16B-\yy	.	16c#\	.	16e/	.	16g/	.	.	.	.	.	.	.	.	.	.	.	.	.	.	.	.	.	.	.	.	.	.	.	.	.	.	.	.
16B-\	.	16B-\yy	.	16c#\	.	16e/	.	16g/	.	.	.	.	.	.	.	.	.	.	.	.	.	.	.	.	.	.	.	.	.	.	.	.	.	.	.	.
16B-\	.	16B-\yy	.	16c#\	.	16e/	.	16g/	.	.	.	.	.	.	.	.	.	.	.	.	.	.	.	.	.	.	.	.	.	.	.	.	.	.	.	.
16B-\	.	16B-\yy	.	16c#\	.	16e/	.	16g/	.	.	.	.	.	.	.	.	.	.	.	.	.	.	.	.	.	.	.	.	.	.	.	.	.	.	.	.
16B-\	.	16B-\yy	.	16c#\	.	16e/	.	16g/	.	.	.	.	.	.	.	.	.	.	.	.	.	.	.	.	.	.	.	.	.	.	.	.	.	.	.	.
16B-\	.	16B-\yy	.	16c#\	.	16e/	.	16g/	.	.	.	.	.	.	.	.	.	.	.	.	.	.	.	.	.	.	.	.	.	.	.	.	.	.	.	.
16B-\JJ	.	16B-\JJyy	.	16c#\JJ	.	16e/JJ	.	16g/JJ	.	.	.	.	.	.	.	.	.	.	.	.	.	.	.	.	.	.	.	.	.	.	.	.	.	.	.	.
*Xtremolo	*	*Xtremolo	*	*Xtremolo	*	*	*	*	*	*	*	*	*	*	*	*	*	*	*	*	*	*	*	*	*	*	*	*	*	*	*	*	*	*	*	*
!!LO:PB:g=original
=39	=39	=39	=39	=39	=39	=39	=39	=39	=39	=39	=39	=39	=39	=39	=39	=39	=39	=39	=39	=39	=39	=39	=39	=39	=39	=39	=39	=39	=39	=39	=39	=39	=39	=39	=39	=39
*	*	*	*	*	*	*	*	*	*	*	*	*	*	*	*	*	*	*	*	*clefF4	*	*	*	*	*	*	*	*	*	*	*	*	*	*	*	*
*	*	*	*	*	*	*	*	*	*	*	*	*^	*	*	*	*	*	*	*	*	*	*	*^	*	*^	*	*	*	*	*	*	*	*	*	*	*
.	.	.	.	.	.	.	.	.	.	16qqRa/LL	.	.	.	.	.	.	.	.	.	.	.	.	.	.	.	.	.	.	.	.	.	.	.	.	.	.	.	.	.
.	.	.	.	.	.	.	.	.	.	16qqRa/JJ	.	.	.	.	.	.	.	.	.	.	.	.	.	.	.	.	.	.	.	.	.	.	.	.	.	.	.	.	.
!	!	!	!	!	!	!	!	!	!	!	!	!	!	!	!	!	!	!	!LO:TX:a:t=P:problem=brak zakończenia ligatur	!	!LO:TX:a:t=P:problem=brak zakończenia łuku	!	!	!	!	!	!	!	!	!	!	!	!	!	!	!	!	!	!
(16A\LL	.	(yy16A\LLyy	.	4c#X\	.	4e/	.	4g/	.	4Ra/	.	4Ree/	4Ra\	1r	.	4AA/	.	4e 4G\	4g] 4c#X/]	.	4A/)	4AA\	.	4a/)	4g\]	.	4ee/]	4cc#X\]	.	4a/)	1re	.	4a/)	1re	.	1ryy	.	4aa\)	.
16G#X\	.	16G#X\yy	.	.	.	.	.	.	.	.	.	.	.	.	.	.	.	.	.	.	.	.	.	.	.	.	.	.	.	.	.	.	.	.	.	.	.	.	.
16A\	.	16A\yy	.	.	.	.	.	.	.	.	.	.	.	.	.	.	.	.	.	.	.	.	.	.	.	.	.	.	.	.	.	.	.	.	.	.	.	.	.
16G#\JJ	.	16G#\JJyy	.	.	.	.	.	.	.	.	.	.	.	.	.	.	.	.	.	.	.	.	.	.	.	.	.	.	.	.	.	.	.	.	.	.	.	.	.
8A\)	.	8A\)yy	.	4r	.	4r	.	4r	.	4r	.	4r	4ryy	.	.	4r	.	4r	4r	.	4r	4ryy	.	4r	4ryy	.	4r	4ryy	.	4r	.	.	4r	.	.	.	.	4r	.
8r	.	8ryy	.	.	.	.	.	.	.	.	.	.	.	.	.	.	.	.	.	.	.	.	.	.	.	.	.	.	.	.	.	.	.	.	.	.	.	.	.
(16A\LL	.	(yy16A\LLyy	.	(16A/LL	.	2r	.	2r	.	2r	.	2r	2ryy	.	.	2r	.	2r	2r	.	2r	2ryy	.	2r	2ryy	.	2r	2ryy	.	2rgg	.	.	2rgg	.	.	.	.	2r	.
16G#\	.	16G#\yy	.	16G#X/	.	.	.	.	.	.	.	.	.	.	.	.	.	.	.	.	.	.	.	.	.	.	.	.	.	.	.	.	.	.	.	.	.	.	.
16A\	.	16A\yy	.	16A/	.	.	.	.	.	.	.	.	.	.	.	.	.	.	.	.	.	.	.	.	.	.	.	.	.	.	.	.	.	.	.	.	.	.	.
16G#\JJ	.	16G#\JJyy	.	16G#/JJ	.	.	.	.	.	.	.	.	.	.	.	.	.	.	.	.	.	.	.	.	.	.	.	.	.	.	.	.	.	.	.	.	.	.	.
8A\)	.	8A\)yy	.	8A/)	.	.	.	.	.	.	.	.	.	.	.	.	.	.	.	.	.	.	.	.	.	.	.	.	.	.	.	.	.	.	.	.	.	.	.
8r	.	8ryy	.	8r	.	.	.	.	.	.	.	.	.	.	.	.	.	.	.	.	.	.	.	.	.	.	.	.	.	.	.	.	.	.	.	.	.	.	.
*	*	*	*	*	*	*	*	*	*	*	*	*v	*v	*	*	*	*	*	*	*	*	*	*	*v	*v	*	*	*	*	*	*	*	*	*	*	*	*	*	*
=40	=40	=40	=40	=40	=40	=40	=40	=40	=40	=40	=40	=40	=40	=40	=40	=40	=40	=40	=40	=40	=40	=40	=40	=40	=40	=40	=40	=40	=40	=40	=40	=40	=40	=40	=40	=40	=40
*tremolo	*	*tremolo	*	*tremolo	*	*	*	*	*	*	*	*	*	*	*	*	*	*	*	*	*	*	*	*	*	*	*	*	*	*	*	*	*	*	*	*	*
!	!LO:DY:rj	!	!LO:DY:rj	!	!	!	!	!	!LO:DY:rj	!	!	!	!	!	!	!LO:DY:rj	!	!	!LO:DY:rj	!	!	!LO:DY:rj	!	!	!	!	!LO:DY:rj	!	!	!	!	!	!	!	!	!	!
16D/LL	f	16D/LLyy	fyy	16A/LL	.	16d/LL	.	16f/LL	f	1r	.	1r	1r	.	1D	f	[1f 1A	[1f [>1d	f	4rc	1D	f	(1a 1f	.	[1dd	1dd	f	4r	1re	.	4r	1re	.	1ryy	.	4r	.
16D/	.	16D/yy	.	16A/	.	16d/	.	16f/	.	.	.	.	.	.	.	.	.	.	.	.	.	.	.	.	.	.	.	.	.	.	.	.	.	.	.	.	.
16D/	.	16D/yy	.	16A/	.	16d/	.	16f/	.	.	.	.	.	.	.	.	.	.	.	.	.	.	.	.	.	.	.	.	.	.	.	.	.	.	.	.	.
16D/	.	16D/yy	.	16A/	.	16d/	.	16f/	.	.	.	.	.	.	.	.	.	.	.	.	.	.	.	.	.	.	.	.	.	.	.	.	.	.	.	.	.
16D/	.	16D/yy	.	16A/	.	16d/	.	16f/	.	.	.	.	.	.	.	.	.	.	.	8.rc	.	.	.	.	.	.	.	8.r	.	.	8.r	.	.	.	.	8.r	.
16D/	.	16D/yy	.	16A/	.	16d/	.	16f/	.	.	.	.	.	.	.	.	.	.	.	.	.	.	.	.	.	.	.	.	.	.	.	.	.	.	.	.	.
16D/	.	16D/yy	.	16A/	.	16d/	.	16f/	.	.	.	.	.	.	.	.	.	.	.	.	.	.	.	.	.	.	.	.	.	.	.	.	.	.	.	.	.
16D/	.	16D/yy	.	16A/	.	16d/	.	16f/	.	.	.	.	.	.	.	.	.	.	.	16d/	.	.	.	.	.	.	.	16dd/	.	.	16dd/	.	.	.	.	16ddd|\	.
16D/	.	16D/yy	.	16A/	.	16d/	.	16f/	.	.	.	.	.	.	.	.	.	.	.	2f/	.	.	.	.	.	.	.	(2ff/	.	.	(2ff/	.	.	.	.	(2fff\	.
16D/	.	16D/yy	.	16A/	.	16d/	.	16f/	.	.	.	.	.	.	.	.	.	.	.	.	.	.	.	.	.	.	.	.	.	.	.	.	.	.	.	.	.
16D/	.	16D/yy	.	16A/	.	16d/	.	16f/	.	.	.	.	.	.	.	.	.	.	.	.	.	.	.	.	.	.	.	.	.	.	.	.	.	.	.	.	.
16D/	.	16D/yy	.	16A/	.	16d/	.	16f/	.	.	.	.	.	.	.	.	.	.	.	.	.	.	.	.	.	.	.	.	.	.	.	.	.	.	.	.	.
16D/	.	16D/yy	.	16A/	.	16d/	.	16f/	.	.	.	.	.	.	.	.	.	.	.	.	.	.	.	.	.	.	.	.	.	.	.	.	.	.	.	.	.
16D/	.	16D/yy	.	16A/	.	16d/	.	16f/	.	.	.	.	.	.	.	.	.	.	.	.	.	.	.	.	.	.	.	.	.	.	.	.	.	.	.	.	.
16D/	.	16D/yy	.	16A/	.	16d/	.	16f/	.	.	.	.	.	.	.	.	.	.	.	.	.	.	.	.	.	.	.	.	.	.	.	.	.	.	.	.	.
16D/JJ	.	16D/JJyy	.	16A/JJ	.	16d/JJ	.	16f/JJ	.	.	.	.	.	.	.	.	.	.	.	.	.	.	.	.	.	.	.	.	.	.	.	.	.	.	.	.	.
*Xtremolo	*	*Xtremolo	*	*Xtremolo	*	*Xtremolo	*	*Xtremolo	*	*	*	*	*	*	*	*	*	*	*	*	*	*	*	*	*	*	*	*	*	*	*	*	*	*	*	*	*
=41	=41	=41	=41	=41	=41	=41	=41	=41	=41	=41	=41	=41	=41	=41	=41	=41	=41	=41	=41	=41	=41	=41	=41	=41	=41	=41	=41	=41	=41	=41	=41	=41	=41	=41	=41	=41	=41
*	*	*	*	*	*	*	*	*	*	*	*	*^	*	*	*	*	*	*	*	*	*	*	*^	*	*	*	*	*	*	*	*	*	*	*	*	*	*
.	.	.	.	.	.	.	.	.	.	16qqRa/LL	.	.	.	.	.	.	.	.	.	.	.	.	.	.	.	.	.	.	.	.	.	.	.	.	.	.	.	.	.
.	.	.	.	.	.	.	.	.	.	16qqRa/JJ	.	.	.	.	.	.	.	.	.	.	.	.	.	.	.	.	.	.	.	.	.	.	.	.	.	.	.	.	.
(16D/LL	.	(yy16D/LLyy	.	4Bn/	.	4d/	.	4f/	.	4Ra/	.	4Ree/	4Ra\	4F\	.	4D\	.	4f] 4Bn\	4f] 4d/]	.	4G#X/	4D\	.	4g#X/)	4f\	.	4dd/]	4dd\	.	4g#X/)	1re	.	4g#X/)	1re	.	1ryy	.	4gg#X\)	.
16C#X/	.	16C#X/yy	.	.	.	.	.	.	.	.	.	.	.	.	.	.	.	.	.	.	.	.	.	.	.	.	.	.	.	.	.	.	.	.	.	.	.	.	.
16D/	.	16D/yy	.	.	.	.	.	.	.	.	.	.	.	.	.	.	.	.	.	.	.	.	.	.	.	.	.	.	.	.	.	.	.	.	.	.	.	.	.
16C#/JJ	.	16C#/JJyy	.	.	.	.	.	.	.	.	.	.	.	.	.	.	.	.	.	.	.	.	.	.	.	.	.	.	.	.	.	.	.	.	.	.	.	.	.
8D/)	.	8D/)yy	.	4r	.	4r	.	4r	.	4r	.	4r	4ryy	4r	.	4r	.	4r	4r	.	4r	4ryy	.	4r	4ryy	.	4r	4ryy	.	4ra	.	.	4ra	.	.	.	.	4r	.
8r	.	8ryy	.	.	.	.	.	.	.	.	.	.	.	.	.	.	.	.	.	.	.	.	.	.	.	.	.	.	.	.	.	.	.	.	.	.	.	.	.
(16D/LL	.	(yy16D/LLyy	.	(16d/LL	.	2r	.	2r	.	2r	.	2r	2ryy	2r	.	2r	.	2r	2r	.	2r	2ryy	.	2r	2ryy	.	2r	2ryy	.	2rcc	.	.	2rcc	.	.	.	.	2r	.
16C#/	.	16C#/yy	.	16c#X/	.	.	.	.	.	.	.	.	.	.	.	.	.	.	.	.	.	.	.	.	.	.	.	.	.	.	.	.	.	.	.	.	.	.	.
16D/	.	16D/yy	.	16d/	.	.	.	.	.	.	.	.	.	.	.	.	.	.	.	.	.	.	.	.	.	.	.	.	.	.	.	.	.	.	.	.	.	.	.
16C#/JJ	.	16C#/JJyy	.	16c#/JJ	.	.	.	.	.	.	.	.	.	.	.	.	.	.	.	.	.	.	.	.	.	.	.	.	.	.	.	.	.	.	.	.	.	.	.
8D/)	.	8D/)yy	.	8d/)	.	.	.	.	.	.	.	.	.	.	.	.	.	.	.	.	.	.	.	.	.	.	.	.	.	.	.	.	.	.	.	.	.	.	.
8r	.	8ryy	.	8r	.	.	.	.	.	.	.	.	.	.	.	.	.	.	.	.	.	.	.	.	.	.	.	.	.	.	.	.	.	.	.	.	.	.	.
*	*	*	*	*	*	*	*	*	*	*	*	*	*	*	*	*	*	*	*	*	*v	*v	*	*	*	*	*v	*v	*	*	*	*	*	*	*	*	*	*	*
*	*	*	*	*	*	*	*	*	*	*	*	*v	*v	*	*	*	*	*	*	*	*	*	*v	*v	*	*	*	*	*	*	*	*	*	*	*	*	*
=42	=42	=42	=42	=42	=42	=42	=42	=42	=42	=42	=42	=42	=42	=42	=42	=42	=42	=42	=42	=42	=42	=42	=42	=42	=42	=42	=42	=42	=42	=42	=42	=42	=42	=42	=42
!	!	!	!	!	!	!	!LO:DY:a	!	!	!	!	!	!	!	!	!	!	!	!	!	!	!	!LO:DY:rj	!	!	!	!	!	!	!	!	!	!	!	!
4Cn/	.	4Cn/yy	.	8cn/	.	8r	p	8r	.	1r	.	1r	1r	.	1r	.	1r	1r	.	1r	.	1a 1f	p	1r	.	4r	1re	.	4r	1re	.	1ryy	.	4r	.
.	.	.	.	8F/L	p	8A/L	.	8c/L	.	.	.	.	.	.	.	.	.	.	.	.	.	.	.	.	.	.	.	.	.	.	.	.	.	.	.
4r	.	4ryy	.	8F/	.	8A/	.	8c/	.	.	.	.	.	.	.	.	.	.	.	.	.	.	.	.	.	8.r	.	.	8.r	.	.	.	.	8.r	.
.	.	.	.	8F/J	.	8A/J	.	8c/J	.	.	.	.	.	.	.	.	.	.	.	.	.	.	.	.	.	.	.	.	.	.	.	.	.	.	.
.	p	.	pyy	.	.	.	.	.	.	.	.	.	.	.	.	.	.	.	.	.	.	.	.	.	.	16a/	.	.	16a|/	.	.	.	.	16aa|\	.
4C/	.	4C/yy	.	8r	.	8r	.	8r	.	.	.	.	.	.	.	.	.	.	.	.	.	.	.	.	.	(4.cc/	.	.	(4.cc/	.	.	.	.	(4.ccc\	.
.	.	.	.	8A/L	.	8c/L	.	8f/L	.	.	.	.	.	.	.	.	.	.	.	.	.	.	.	.	.	.	.	.	.	.	.	.	.	.	.
4r	.	4ryy	.	8A/	.	8c/	.	8f/	.	.	.	.	.	.	.	.	.	.	.	.	.	.	.	.	.	.	.	.	.	.	.	.	.	.	.
.	.	.	.	8A/J	.	8c/J	.	8f/J	.	.	.	.	.	.	.	.	.	.	.	.	.	.	.	.	.	8ff/)	.	.	8ff/)	.	.	.	.	8fff\)	.
!!LO:PB:g=original
=43	=43	=43	=43	=43	=43	=43	=43	=43	=43	=43	=43	=43	=43	=43	=43	=43	=43	=43	=43	=43	=43	=43	=43	=43	=43	=43	=43	=43	=43	=43	=43	=43	=43	=43	=43
!	!	!	!	!	!	!	!	!	!	!	!	!	!LO:TX:a:i:t=/&colon; Hans jürga wchodzi z głębi &colon;/	!	!	!	!	!	!	!	!	!	!	!	!	!	!	!	!	!	!	!	!	!	!
4C/	.	4C/yy	.	8r	.	8r	.	8r	.	1ryy	.	1ryy	1ryy	.	1ryy	.	1ryy	1ryy	.	1ryy	.	1g 1c	.	1ryy	.	4.ee/	1re	.	4.ee/	1re	.	1ryy	.	4.eee\	.
.	.	.	.	8cL 8G\	.	8B-/L	.	8e/L	.	.	.	.	.	.	.	.	.	.	.	.	.	.	.	.	.	.	.	.	.	.	.	.	.	.	.
4r	.	4ryy	.	8c 8G\	.	8B-/	.	8e/	.	.	.	.	.	.	.	.	.	.	.	.	.	.	.	.	.	.	.	.	.	.	.	.	.	.	.
.	.	.	.	8cJ 8G\	.	8B-/J	.	8e/J	.	.	.	.	.	.	.	.	.	.	.	.	.	.	.	.	.	8cc/	.	.	8cc/	.	.	.	.	8ccc\	.
4C/	.	4C/yy	.	8r	.	8r	.	8r	.	.	.	.	.	.	.	.	.	.	.	.	.	.	.	.	.	4b-X/	.	.	4b-X/	.	.	.	.	4bb-X\	.
.	.	.	.	8cL 8G\	.	8B-/L	.	8e/L	.	.	.	.	.	.	.	.	.	.	.	.	.	.	.	.	.	.	.	.	.	.	.	.	.	.	.
4r	.	4ryy	.	8c 8G\	.	8B-/	.	8e/	.	.	.	.	.	.	.	.	.	.	.	.	.	.	.	.	.	4g/	.	.	4g/	.	.	.	.	4gg\	.
.	.	.	.	8cJ 8G\	.	8B-/J	.	8e/J	.	.	.	.	.	.	.	.	.	.	.	.	.	.	.	.	.	.	.	.	.	.	.	.	.	.	.
=44	=44	=44	=44	=44	=44	=44	=44	=44	=44	=44	=44	=44	=44	=44	=44	=44	=44	=44	=44	=44	=44	=44	=44	=44	=44	=44	=44	=44	=44	=44	=44	=44	=44	=44	=44
(16F\LL	.	(yy16F\LLyy	.	4c 4F/	.	4A/	.	4f/	.	1ryy	.	1ryy	1ryy	.	1ryy	.	1ryy	1ryy	.	1ryy	.	4f 4A/	.	1ryy	.	4f/	1re	.	4f/	1re	.	1ryy	.	4ff\	.
16E\	.	16E\yy	.	.	.	.	.	.	.	.	.	.	.	.	.	.	.	.	.	.	.	.	.	.	.	.	.	.	.	.	.	.	.	.	.
16F\	.	16F\yy	.	.	.	.	.	.	.	.	.	.	.	.	.	.	.	.	.	.	.	.	.	.	.	.	.	.	.	.	.	.	.	.	.
16E\JJ	.	16E\JJyy	.	.	.	.	.	.	.	.	.	.	.	.	.	.	.	.	.	.	.	.	.	.	.	.	.	.	.	.	.	.	.	.	.
8F\)	.	8F\)yy	.	4r	.	4r	.	4r	.	.	.	.	.	.	.	.	.	.	.	.	.	4r	.	.	.	4ra	.	.	4ra	.	.	.	.	4r	.
8r	.	8ryy	.	.	.	.	.	.	.	.	.	.	.	.	.	.	.	.	.	.	.	.	.	.	.	.	.	.	.	.	.	.	.	.	.
(16F\LL	.	(yy16F\LLyy	.	(16f\LL	.	2r	.	2r	pp	.	.	.	.	.	.	.	.	.	.	.	.	2r	.	.	.	2rcc	.	.	2rcc	.	.	.	.	2r	.
16E\	.	16E\yy	.	16e\	.	.	.	.	.	.	.	.	.	.	.	.	.	.	.	.	.	.	.	.	.	.	.	.	.	.	.	.	.	.	.
16F\	.	16F\yy	.	16f\	.	.	.	.	.	.	.	.	.	.	.	.	.	.	.	.	.	.	.	.	.	.	.	.	.	.	.	.	.	.	.
16E\JJ	.	16E\JJyy	.	16e\JJ	.	.	.	.	.	.	.	.	.	.	.	.	.	.	.	.	.	.	.	.	.	.	.	.	.	.	.	.	.	.	.
8F\)	.	8F\)yy	.	8f\)	.	.	.	.	.	.	.	.	.	.	.	.	.	.	.	.	.	.	.	.	.	.	.	.	.	.	.	.	.	.	.
8r	.	8ryy	.	8r	.	.	.	.	.	.	.	.	.	.	.	.	.	.	.	.	.	.	.	.	.	.	.	.	.	.	.	.	.	.	.
*	*	*	*	*	*	*	*	*	*	*	*	*	*	*	*	*	*	*	*	*	*	*	*	*	*	*v	*v	*	*	*	*	*	*	*	*
*	*	*	*	*	*	*	*	*	*	*	*	*	*	*	*	*	*	*	*	*	*	*	*	*	*	*	*	*v	*v	*	*	*	*	*
=45	=45	=45	=45	=45	=45	=45	=45	=45	=45	=45	=45	=45	=45	=45	=45	=45	=45	=45	=45	=45	=45	=45	=45	=45	=45	=45	=45	=45	=45	=45	=45	=45	=45
*	*	*	*	*tremolo	*	*tremolo	*	*tremolo	*	*	*	*	*	*	*	*	*	*	*	*	*	*	*	*	*	*	*	*	*	*	*	*	*
1F	.	1Fyy	.	32d-X\LLL	.	32f/LLL	.	32b-X\LLL	.	1ryy	.	1ryy	1ryy	.	1ryy	.	1ryy	1ryy	.	1ryy	.	1ryy	.	1ryy	.	1ryy	.	1ryy	.	1ryy	.	1ryy	.
.	.	.	.	32d-\	.	32f/	.	32b-\	.	.	.	.	.	.	.	.	.	.	.	.	.	.	.	.	.	.	.	.	.	.	.	.	.
.	.	.	.	32d-\	.	32f/	.	32b-\	.	.	.	.	.	.	.	.	.	.	.	.	.	.	.	.	.	.	.	.	.	.	.	.	.
.	.	.	.	32d-\	.	32f/	.	32b-\	.	.	.	.	.	.	.	.	.	.	.	.	.	.	.	.	.	.	.	.	.	.	.	.	.
.	.	.	.	32d-\	.	32f/	.	32b-\	.	.	.	.	.	.	.	.	.	.	.	.	.	.	.	.	.	.	.	.	.	.	.	.	.
.	.	.	.	32d-\	.	32f/	.	32b-\	.	.	.	.	.	.	.	.	.	.	.	.	.	.	.	.	.	.	.	.	.	.	.	.	.
.	.	.	.	32d-\	.	32f/	.	32b-\	.	.	.	.	.	.	.	.	.	.	.	.	.	.	.	.	.	.	.	.	.	.	.	.	.
.	.	.	.	32d-\	.	32f/	.	32b-\	.	.	.	.	.	.	.	.	.	.	.	.	.	.	.	.	.	.	.	.	.	.	.	.	.
.	.	.	.	32d-\	.	32f/	.	32b-\	.	.	.	.	.	.	.	.	.	.	.	.	.	.	.	.	.	.	.	.	.	.	.	.	.
.	.	.	.	32d-\	.	32f/	.	32b-\	.	.	.	.	.	.	.	.	.	.	.	.	.	.	.	.	.	.	.	.	.	.	.	.	.
.	.	.	.	32d-\	.	32f/	.	32b-\	.	.	.	.	.	.	.	.	.	.	.	.	.	.	.	.	.	.	.	.	.	.	.	.	.
.	.	.	.	32d-\	.	32f/	.	32b-\	.	.	.	.	.	.	.	.	.	.	.	.	.	.	.	.	.	.	.	.	.	.	.	.	.
.	.	.	.	32d-\	.	32f/	.	32b-\	.	.	.	.	.	.	.	.	.	.	.	.	.	.	.	.	.	.	.	.	.	.	.	.	.
.	.	.	.	32d-\	.	32f/	.	32b-\	.	.	.	.	.	.	.	.	.	.	.	.	.	.	.	.	.	.	.	.	.	.	.	.	.
.	.	.	.	32d-\	.	32f/	.	32b-\	.	.	.	.	.	.	.	.	.	.	.	.	.	.	.	.	.	.	.	.	.	.	.	.	.
.	.	.	.	32d-\	.	32f/	.	32b-\	.	.	.	.	.	.	.	.	.	.	.	.	.	.	.	.	.	.	.	.	.	.	.	.	.
.	.	.	.	32d-\	.	32f/	.	32b-\	.	.	.	.	.	.	.	.	.	.	.	.	.	.	.	.	.	.	.	.	.	.	.	.	.
.	.	.	.	32d-\	.	32f/	.	32b-\	.	.	.	.	.	.	.	.	.	.	.	.	.	.	.	.	.	.	.	.	.	.	.	.	.
.	.	.	.	32d-\	.	32f/	.	32b-\	.	.	.	.	.	.	.	.	.	.	.	.	.	.	.	.	.	.	.	.	.	.	.	.	.
.	.	.	.	32d-\	.	32f/	.	32b-\	.	.	.	.	.	.	.	.	.	.	.	.	.	.	.	.	.	.	.	.	.	.	.	.	.
.	.	.	.	32d-\	.	32f/	.	32b-\	.	.	.	.	.	.	.	.	.	.	.	.	.	.	.	.	.	.	.	.	.	.	.	.	.
.	.	.	.	32d-\	.	32f/	.	32b-\	.	.	.	.	.	.	.	.	.	.	.	.	.	.	.	.	.	.	.	.	.	.	.	.	.
.	.	.	.	32d-\	.	32f/	.	32b-\	.	.	.	.	.	.	.	.	.	.	.	.	.	.	.	.	.	.	.	.	.	.	.	.	.
.	.	.	.	32d-\JJJ	.	32f/JJJ	.	32b-\JJJ	.	.	.	.	.	.	.	.	.	.	.	.	.	.	.	.	.	.	.	.	.	.	.	.	.
.	.	.	.	32B-/LLL	.	32f/LLL	.	32dd-X\LLL	.	.	.	.	.	.	.	.	.	.	.	.	.	.	.	.	.	.	.	.	.	.	.	.	.
.	.	.	.	32B-/	.	32f/	.	32dd-\	.	.	.	.	.	.	.	.	.	.	.	.	.	.	.	.	.	.	.	.	.	.	.	.	.
.	.	.	.	32B-/	.	32f/	.	32dd-\	.	.	.	.	.	.	.	.	.	.	.	.	.	.	.	.	.	.	.	.	.	.	.	.	.
.	.	.	.	32B-/	.	32f/	.	32dd-\	.	.	.	.	.	.	.	.	.	.	.	.	.	.	.	.	.	.	.	.	.	.	.	.	.
.	.	.	.	32B-/	.	32f/	.	32dd-\	.	.	.	.	.	.	.	.	.	.	.	.	.	.	.	.	.	.	.	.	.	.	.	.	.
.	.	.	.	32B-/	.	32f/	.	32dd-\	.	.	.	.	.	.	.	.	.	.	.	.	.	.	.	.	.	.	.	.	.	.	.	.	.
.	.	.	.	32B-/	.	32f/	.	32dd-\	.	.	.	.	.	.	.	.	.	.	.	.	.	.	.	.	.	.	.	.	.	.	.	.	.
.	.	.	.	32B-/JJJ	.	32f/JJJ	.	32dd-\JJJ	.	.	.	.	.	.	.	.	.	.	.	.	.	.	.	.	.	.	.	.	.	.	.	.	.
*	*	*	*	*Xtremolo	*	*	*	*	*	*	*	*	*	*	*	*	*	*	*	*	*	*	*	*	*	*	*	*	*	*	*	*	*
=46	=46	=46	=46	=46	=46	=46	=46	=46	=46	=46	=46	=46	=46	=46	=46	=46	=46	=46	=46	=46	=46	=46	=46	=46	=46	=46	=46	=46	=46	=46	=46	=46	=46
(16F\LL	.	(yy16F\LLyy	.	4A/	.	4f/	.	4cc\	.	1ryy	.	1ryy	1ryy	.	1ryy	.	1ryy	1ryy	.	1ryy	.	1ryy	.	1ryy	.	1ryy	.	1ryy	.	1ryy	.	1ryy	.
16E\	.	16E\yy	.	.	.	.	.	.	.	.	.	.	.	.	.	.	.	.	.	.	.	.	.	.	.	.	.	.	.	.	.	.	.
16F\	.	16F\yy	.	.	.	.	.	.	.	.	.	.	.	.	.	.	.	.	.	.	.	.	.	.	.	.	.	.	.	.	.	.	.
16E\JJ	.	16E\JJyy	.	.	.	.	.	.	.	.	.	.	.	.	.	.	.	.	.	.	.	.	.	.	.	.	.	.	.	.	.	.	.
8F\)	.	8F\)yy	.	4r	.	4r	.	4r	.	.	.	.	.	.	.	.	.	.	.	.	.	.	.	.	.	.	.	.	.	.	.	.	.
8r	.	8ryy	.	.	.	.	.	.	.	.	.	.	.	.	.	.	.	.	.	.	.	.	.	.	.	.	.	.	.	.	.	.	.
(16F\LL	.	(yy16F\LLyy	.	(16f\LL	.	2r	.	2r	.	.	.	.	.	.	.	.	.	.	.	.	.	.	.	.	.	.	.	.	.	.	.	.	.
16E\	.	16E\yy	.	16e\	.	.	.	.	.	.	.	.	.	.	.	.	.	.	.	.	.	.	.	.	.	.	.	.	.	.	.	.	.
16F\	.	16F\yy	.	16f\	.	.	.	.	.	.	.	.	.	.	.	.	.	.	.	.	.	.	.	.	.	.	.	.	.	.	.	.	.
16E\JJ	.	16E\JJyy	.	16e\JJ	.	.	.	.	.	.	.	.	.	.	.	.	.	.	.	.	.	.	.	.	.	.	.	.	.	.	.	.	.
8F\)	.	8F\)yy	.	8f\)	.	.	.	.	.	.	.	.	.	.	.	.	.	.	.	.	.	.	.	.	.	.	.	.	.	.	.	.	.
8r	.	8ryy	.	8r	.	.	.	.	.	.	.	.	.	.	.	.	.	.	.	.	.	.	.	.	.	.	.	.	.	.	.	.	.
=47	=47	=47	=47	=47	=47	=47	=47	=47	=47	=47	=47	=47	=47	=47	=47	=47	=47	=47	=47	=47	=47	=47	=47	=47	=47	=47	=47	=47	=47	=47	=47	=47	=47
*	*	*	*	*tremolo	*	*	*	*	*	*	*	*	*	*	*	*	*	*	*	*	*	*	*	*	*	*	*	*	*	*	*	*	*
1F	.	1Fyy	.	32B-X/LLL	.	32f/LLL	.	32dd-X\LLL	.	1ryy	.	1ryy	1ryy	.	1ryy	.	1ryy	1ryy	.	1ryy	.	1ryy	.	1ryy	.	1ryy	.	1ryy	.	1ryy	.	1ryy	.
.	.	.	.	32B-/	.	32f/	.	32dd-\	.	.	.	.	.	.	.	.	.	.	.	.	.	.	.	.	.	.	.	.	.	.	.	.	.
.	.	.	.	32B-/	.	32f/	.	32dd-\	.	.	.	.	.	.	.	.	.	.	.	.	.	.	.	.	.	.	.	.	.	.	.	.	.
.	.	.	.	32B-/	.	32f/	.	32dd-\	.	.	.	.	.	.	.	.	.	.	.	.	.	.	.	.	.	.	.	.	.	.	.	.	.
.	.	.	.	32B-/	.	32f/	.	32dd-\	.	.	.	.	.	.	.	.	.	.	.	.	.	.	.	.	.	.	.	.	.	.	.	.	.
.	.	.	.	32B-/	.	32f/	.	32dd-\	.	.	.	.	.	.	.	.	.	.	.	.	.	.	.	.	.	.	.	.	.	.	.	.	.
.	.	.	.	32B-/	.	32f/	.	32dd-\	.	.	.	.	.	.	.	.	.	.	.	.	.	.	.	.	.	.	.	.	.	.	.	.	.
.	.	.	.	32B-/	.	32f/	.	32dd-\	.	.	.	.	.	.	.	.	.	.	.	.	.	.	.	.	.	.	.	.	.	.	.	.	.
.	.	.	.	32B-/	.	32f/	.	32dd-\	.	.	.	.	.	.	.	.	.	.	.	.	.	.	.	.	.	.	.	.	.	.	.	.	.
.	.	.	.	32B-/	.	32f/	.	32dd-\	.	.	.	.	.	.	.	.	.	.	.	.	.	.	.	.	.	.	.	.	.	.	.	.	.
.	.	.	.	32B-/	.	32f/	.	32dd-\	.	.	.	.	.	.	.	.	.	.	.	.	.	.	.	.	.	.	.	.	.	.	.	.	.
.	.	.	.	32B-/	.	32f/	.	32dd-\	.	.	.	.	.	.	.	.	.	.	.	.	.	.	.	.	.	.	.	.	.	.	.	.	.
.	.	.	.	32B-/	.	32f/	.	32dd-\	.	.	.	.	.	.	.	.	.	.	.	.	.	.	.	.	.	.	.	.	.	.	.	.	.
.	.	.	.	32B-/	.	32f/	.	32dd-\	.	.	.	.	.	.	.	.	.	.	.	.	.	.	.	.	.	.	.	.	.	.	.	.	.
.	.	.	.	32B-/	.	32f/	.	32dd-\	.	.	.	.	.	.	.	.	.	.	.	.	.	.	.	.	.	.	.	.	.	.	.	.	.
.	.	.	.	32B-/	.	32f/	.	32dd-\	.	.	.	.	.	.	.	.	.	.	.	.	.	.	.	.	.	.	.	.	.	.	.	.	.
.	.	.	.	32B-/	.	32f/	.	32dd-\	.	.	.	.	.	.	.	.	.	.	.	.	.	.	.	.	.	.	.	.	.	.	.	.	.
.	.	.	.	32B-/	.	32f/	.	32dd-\	.	.	.	.	.	.	.	.	.	.	.	.	.	.	.	.	.	.	.	.	.	.	.	.	.
.	.	.	.	32B-/	.	32f/	.	32dd-\	.	.	.	.	.	.	.	.	.	.	.	.	.	.	.	.	.	.	.	.	.	.	.	.	.
.	.	.	.	32B-/	.	32f/	.	32dd-\	.	.	.	.	.	.	.	.	.	.	.	.	.	.	.	.	.	.	.	.	.	.	.	.	.
.	.	.	.	32B-/	.	32f/	.	32dd-\	.	.	.	.	.	.	.	.	.	.	.	.	.	.	.	.	.	.	.	.	.	.	.	.	.
.	.	.	.	32B-/	.	32f/	.	32dd-\	.	.	.	.	.	.	.	.	.	.	.	.	.	.	.	.	.	.	.	.	.	.	.	.	.
.	.	.	.	32B-/	.	32f/	.	32dd-\	.	.	.	.	.	.	.	.	.	.	.	.	.	.	.	.	.	.	.	.	.	.	.	.	.
.	.	.	.	32B-/JJJ	.	32f/	.	32dd-\JJJ	.	.	.	.	.	.	.	.	.	.	.	.	.	.	.	.	.	.	.	.	.	.	.	.	.
.	.	.	.	32d-X\LLL	.	32f/	.	32b-\LLL	.	.	.	.	.	.	.	.	.	.	.	.	.	.	.	.	.	.	.	.	.	.	.	.	.
.	.	.	.	32d-\	.	32f/	.	32b-\	.	.	.	.	.	.	.	.	.	.	.	.	.	.	.	.	.	.	.	.	.	.	.	.	.
.	.	.	.	32d-\	.	32f/	.	32b-\	.	.	.	.	.	.	.	.	.	.	.	.	.	.	.	.	.	.	.	.	.	.	.	.	.
.	.	.	.	32d-\	.	32f/	.	32b-\	.	.	.	.	.	.	.	.	.	.	.	.	.	.	.	.	.	.	.	.	.	.	.	.	.
.	.	.	.	32d-\	.	32f/	.	32b-\	.	.	.	.	.	.	.	.	.	.	.	.	.	.	.	.	.	.	.	.	.	.	.	.	.
.	.	.	.	32d-\	.	32f/	.	32b-\	.	.	.	.	.	.	.	.	.	.	.	.	.	.	.	.	.	.	.	.	.	.	.	.	.
.	.	.	.	32d-\	.	32f/	.	32b-\	.	.	.	.	.	.	.	.	.	.	.	.	.	.	.	.	.	.	.	.	.	.	.	.	.
.	.	.	.	32d-\JJJ	.	32f/JJJ	.	32b-\JJJ	.	.	.	.	.	.	.	.	.	.	.	.	.	.	.	.	.	.	.	.	.	.	.	.	.
*	*	*	*	*Xtremolo	*	*	*	*	*	*	*	*	*	*	*	*	*	*	*	*	*	*	*	*	*	*	*	*	*	*	*	*	*
!!LO:PB:g=original
=48	=48	=48	=48	=48	=48	=48	=48	=48	=48	=48	=48	=48	=48	=48	=48	=48	=48	=48	=48	=48	=48	=48	=48	=48	=48	=48	=48	=48	=48	=48	=48	=48	=48
*	*	*	*	*	*	*	*	*	*	*	*	*	*^	*	*	*	*	*	*	*	*	*	*	*^	*	*	*	*	*	*	*	*	*
.	.	.	.	.	.	.	.	.	.	16qqRa/LL	.	.	.	.	.	.	.	.	.	.	.	.	.	.	.	.	.	.	.	.	.	.	.	.	.
.	.	.	.	.	.	.	.	.	.	16qqRa/JJ	.	.	.	.	.	.	.	.	.	.	.	.	.	.	.	.	.	.	.	.	.	.	.	.	.
!	!LO:DY:rj	!	!LO:DY:rj	!	!LO:DY:rj	!	!	!	!LO:DY:rj	!	!	!	!	!	!	!	!	!	!	!	!	!LO:DY:rj	!	!	!	!	!	!	!LO:DY:rj	!	!	!	!LO:DY:rj	!	!
4F\	f	4F\yy	fyy	4c 4F/	f	4cc 4f/	.	4ff 4a\	f	4Ra/	.	4F\	4G/	4C\	.	4F\	.	4f 4A\	4a 4f/	.	4F 4FF/	f	4f 4A/	.	4ff/	4cc\	.	4ff 4a\	f	4ccc 4aa\	.	4fff\	f	4fff\	.
4r	.	4ryy	.	4r	.	4r	.	4r	.	4r	.	4r	4r	4ryy	.	4r	.	4r	4r	.	4r	.	4r	.	4r	4ryy	.	4r	.	4r	.	4r	.	4r	.
!LO:TX:b:i:t=Sierżant\nPałac w płomieniach, stodoły\ntak blisko, hola, Kamraci za mną!\n(&colon;wychodzą;)\nO. gra Marsza	!	!	!	!	!	!	!	!	!	!	!	!	!	!	!	!	!	!	!	!	!	!	!	!	!	!	!	!	!	!	!	!	!	!	!
2r	.	2ryy	.	2r	.	2r	.	2r	.	2r	.	2r	2r	2ryy	.	2r	.	2r	2r	.	2r	.	2r	.	2r	2ryy	.	2r	.	2r	.	2r	.	2r	.
*	*	*	*	*	*	*	*	*	*	*	*	*	*v	*v	*	*	*	*	*	*	*	*	*	*	*v	*v	*	*	*	*	*	*	*	*	*
==	==	==	==	==	==	==	==	==	==	==	==	==	==	==	==	==	==	==	==	==	==	==	==	==	==	==	==	==	==	==	==	==	==
*-	*-	*-	*-	*-	*-	*-	*-	*-	*-	*-	*-	*-	*-	*-	*-	*-	*-	*-	*-	*-	*-	*-	*-	*-	*-	*-	*-	*-	*-	*-	*-	*-	*-
!!!system-decoration: [({g1}s3,s4{g2}s7,s8{g3}{g4})({g5}s16{g6})]
!!!RDF**kern: > = above
!!!RDF**kern: < = below
!!!RDF**kern: | = vertical stroke
!!!ENC: Marta Lawrence
!!!END: 2021-05-18
!!!ENC: Marcin Jachim
!!!END: 2021-04-22
